;FLAVOR:Marlin
;TIME:11277
;Filament used: 7.6802m
;Layer height: 0.2
;MINX:35.398
;MINY:40.839
;MINZ:0.28
;MAXX:88.391
;MAXY:79.141
;MAXZ:111.48
;POSTPROCESSED
;Generated with Cura_SteamEngine 5.4.0
M140 S70
M105
M190 S70
M104 S255
M105
M109 S255
M82 ;absolute extrusion mode
G21;(metric values)
G90;(absolute positioning)
M82;(set extruder to absolute mode)
M107;(start with the fan off)
G28;(Home the printer)
G92 E0;(Reset the extruder to 0)
G0 Z5 E5 F500;(Move up and prime the nozzle)
G0 X-1 Z0;(Move outside the printable area)
G1 Y60 E8 F500;(Draw a priming/wiping line to the rear)
G1 X-1;(Move a little closer to the print area)
G1 Y10 E16 F500;(draw more priming/wiping)
G1 E15 F250;(Small retract)
G92 E0;(Zero the extruder)
G92 E0
G92 E0
G1 F2400 E-2.5
;LAYER_COUNT:557
;LAYER:0
M107
G0 F4320 X36.673 Y42.809 Z0.28
;TYPE:SKIRT
G1 F2400 E0
G1 F1800 X38.017 Y41.743 E0.06989
G1 X39.472 Y41.072 E0.13518
G1 X41.302 Y40.839 E0.21034
G1 X43.37 Y41.118 E0.29536
G1 X44.688 Y41.493 E0.35119
G1 X46.108 Y42.094 E0.41402
G1 X47.101 Y42.649 E0.46036
G1 X48.302 Y43.533 E0.52112
G1 X49.479 Y44.697 E0.58857
G1 X50.153 Y45.581 E0.63386
G1 X50.442 Y46.043 E0.65606
G1 X51.195 Y47.607 E0.72679
G1 X51.733 Y49.126 E0.79245
G1 X51.977 Y49.252 E0.80363
G1 X52.604 Y49.42 E0.83008
G1 X53.144 Y49.507 E0.85237
G1 X54.016 Y49.629 E0.88824
G1 X55.657 Y49.769 E0.95534
G1 X57.469 Y49.859 E1.02926
G1 X58.442 Y49.891 E1.06893
G1 X59.908 Y49.92 E1.12867
G1 X61.072 Y49.93 E1.1761
G1 X63.116 Y49.926 E1.25938
G1 X65.327 Y49.888 E1.34947
G1 X67.073 Y49.828 E1.42066
G1 X68.278 Y49.758 E1.46983
G1 X69.606 Y49.636 E1.52417
G1 X70.138 Y49.576 E1.54598
G1 X71.132 Y49.42 E1.58698
G1 X71.855 Y49.236 E1.61737
G1 X72.015 Y49.142 E1.62494
G1 X72.155 Y48.927 E1.63539
G1 X72.613 Y47.617 E1.69193
G1 X73.011 Y46.71 E1.73229
G1 X73.665 Y45.569 E1.78587
G1 X74.406 Y44.592 E1.83583
G1 X75.266 Y43.715 E1.88588
G1 X76.322 Y42.878 E1.94078
G1 X77.134 Y42.37 E1.9798
G1 X78.407 Y41.751 E2.03748
G1 X79.989 Y41.203 E2.10569
G1 X81.107 Y40.969 E2.15223
G1 X82.789 Y40.86 E2.2209
G1 X83.976 Y40.964 E2.26945
G1 X85.739 Y41.637 E2.34634
G1 X86.878 Y42.604 E2.40721
G1 X87.672 Y43.639 E2.46036
G1 X88.375 Y45.292 E2.53355
G1 X88.391 Y47.058 E2.60551
G1 X87.966 Y48.755 E2.67678
G1 X86.933 Y50.471 E2.75839
G1 X85.242 Y52.632 E2.87019
G1 X85.36 Y53.346 E2.89968
G1 X85.481 Y54.584 E2.95036
G1 X85.443 Y56.248 E3.01817
G1 X85.193 Y57.829 E3.08339
G1 X84.552 Y59.344 E3.15041
G1 X84.199 Y59.977 E3.17994
G1 X84.363 Y60.259 E3.19323
G1 X84.922 Y61.501 E3.24873
G1 X85.378 Y62.895 E3.30848
G1 X85.514 Y65.066 E3.39711
G1 X85.483 Y65.749 E3.42497
G1 X85.257 Y67.296 E3.48867
G1 X85.404 Y67.537 E3.50017
G1 X87.133 Y69.791 E3.61591
G1 X87.87 Y71.031 E3.67469
G1 X88.382 Y72.641 E3.74352
G1 X88.383 Y74.526 E3.82032
G1 X87.731 Y76.405 E3.90136
G1 X86.605 Y77.66 E3.97006
G1 X85.477 Y78.474 E4.02673
G1 X83.759 Y79.078 E4.10093
G1 X82.552 Y79.136 E4.15016
G1 X81.149 Y79.028 E4.2075
G1 X80.399 Y78.882 E4.23863
G1 X78.851 Y78.404 E4.30464
G1 X77.666 Y77.893 E4.35722
G1 X76.515 Y77.237 E4.41119
G1 X74.937 Y76.025 E4.49226
G1 X73.71 Y74.476 E4.57278
G1 X73.243 Y73.714 E4.60919
G1 X72.788 Y72.782 E4.65145
G1 X72.184 Y71.104 E4.72411
G1 X72.006 Y70.821 E4.73773
G1 X71.866 Y70.754 E4.74405
G1 X71.21 Y70.599 E4.77152
G1 X70.557 Y70.475 E4.7986
G1 X69.53 Y70.351 E4.84075
G1 X68.88 Y70.29 E4.86734
G1 X67.906 Y70.226 E4.90711
G1 X66.982 Y70.177 E4.94481
G1 X65.714 Y70.127 E4.99652
G1 X63.919 Y70.088 E5.06967
G1 X62.343 Y70.076 E5.13388
G1 X59.913 Y70.09 E5.23289
G1 X58.501 Y70.118 E5.29043
G1 X56.757 Y70.178 E5.36153
G1 X55.793 Y70.231 E5.40087
G1 X54.686 Y70.319 E5.44611
G1 X53.635 Y70.432 E5.48918
G1 X53.056 Y70.518 E5.51303
G1 X52.287 Y70.676 E5.54502
G1 X51.831 Y70.833 E5.56467
G1 X51.697 Y71.024 E5.57417
G1 X51.188 Y72.452 E5.63594
G1 X50.857 Y73.214 E5.66979
G1 X50.215 Y74.347 E5.72285
G1 X49.186 Y75.666 E5.79101
G1 X48.229 Y76.575 E5.84479
G1 X47.371 Y77.213 E5.88835
G1 X46.674 Y77.641 E5.92168
G1 X45.294 Y78.299 E5.98397
G1 X44.016 Y78.747 E6.03914
G1 X42.904 Y79.011 E6.08571
G1 X41.031 Y79.141 E6.16221
G1 X39.942 Y79.043 E6.20676
G1 X38.263 Y78.473 E6.279
G1 X36.981 Y77.447 E6.3459
G1 X36.476 Y76.888 E6.37659
G1 X35.737 Y75.5 E6.44066
G1 X35.444 Y74.068 E6.50022
G1 X35.442 Y72.982 E6.54446
G1 X35.799 Y71.443 E6.60883
G1 X36.465 Y70.181 E6.66697
G1 X37.205 Y69.123 E6.71958
G1 X38.587 Y67.356 E6.81098
G1 X38.354 Y65.715 E6.87851
G1 X38.327 Y64.678 E6.92077
G1 X38.478 Y63.075 E6.98637
G1 X38.565 Y62.659 E7.00369
G1 X39.119 Y61.007 E7.07468
G1 X39.615 Y59.99 E7.12078
G1 X39.212 Y59.247 E7.15522
G1 X38.66 Y57.932 E7.21333
G1 X38.357 Y55.994 E7.29325
G1 X38.334 Y54.452 E7.35608
G1 X38.49 Y53.154 E7.40935
G1 X38.569 Y52.652 E7.43005
G1 X36.556 Y50.005 E7.56555
G1 X35.896 Y48.849 E7.61978
G1 X35.398 Y47.053 E7.69572
G1 X35.511 Y45.4 E7.76322
G1 X35.842 Y44.233 E7.81265
G1 X36.345 Y43.371 E7.85331
G0 F1620 X36.673 Y42.809
G0 F4320 X36.942 Y43.042
G1 F1800 X38.199 Y42.045 E7.91868
G1 X39.571 Y41.412 E7.98024
G1 X41.3 Y41.192 E8.05126
G1 X43.275 Y41.455 E8.13244
G1 X44.552 Y41.816 E8.1865
G1 X45.937 Y42.4 E8.24775
G1 X46.93 Y42.955 E8.2941
G1 X48.056 Y43.782 E8.35102
G1 X49.201 Y44.91 E8.4165
G1 X49.856 Y45.767 E8.46045
G1 X50.145 Y46.229 E8.48266
G1 X50.865 Y47.724 E8.55026
G1 X51.4 Y49.233 E8.61549
G1 X51.524 Y49.412 E8.62437
G1 X51.848 Y49.58 E8.63924
G1 X52.538 Y49.764 E8.66833
G1 X53.089 Y49.853 E8.69107
G1 X53.974 Y49.977 E8.72748
G1 X55.637 Y50.119 E8.79549
G1 X57.452 Y50.209 E8.86953
G1 X58.431 Y50.241 E8.90944
G1 X59.901 Y50.27 E8.96934
G1 X61.07 Y50.28 E9.01697
G1 X63.122 Y50.276 E9.10058
G1 X65.339 Y50.238 E9.19092
G1 X67.085 Y50.178 E9.2621
G1 X68.31 Y50.106 E9.3121
G1 X69.638 Y49.985 E9.36643
G1 X70.185 Y49.923 E9.38886
G1 X71.2 Y49.764 E9.43072
G1 X71.987 Y49.563 E9.46381
G1 X72.263 Y49.402 E9.47683
G1 X72.471 Y49.083 E9.49235
G1 X72.934 Y47.758 E9.54953
G1 X73.332 Y46.851 E9.58989
G1 X73.944 Y45.781 E9.64011
G1 X74.685 Y44.804 E9.69007
G1 X75.515 Y43.961 E9.73827
G1 X76.508 Y43.175 E9.78987
G1 X77.32 Y42.667 E9.8289
G1 X78.522 Y42.082 E9.88336
G1 X80.061 Y41.546 E9.94976
G1 X81.179 Y41.312 E9.9963
G1 X82.758 Y41.209 E10.06077
G1 X83.898 Y41.309 E10.1074
G1 X85.557 Y41.942 E10.17975
G1 X86.624 Y42.848 E10.23678
G1 X87.368 Y43.818 E10.28658
G1 X88.026 Y45.365 E10.35508
G1 X88.041 Y47.018 E10.42243
G1 X87.64 Y48.618 E10.48964
G1 X86.657 Y50.255 E10.56744
G1 X85.089 Y52.259 E10.67111
G1 X84.882 Y52.596 E10.68722
G1 X85.012 Y53.381 E10.71964
G1 X85.131 Y54.577 E10.76861
G1 X85.097 Y56.193 E10.83447
G1 X84.854 Y57.731 E10.89791
G1 X84.246 Y59.173 E10.96167
G1 X83.795 Y59.981 E10.99937
G1 X84.044 Y60.403 E11.01934
G1 X84.589 Y61.61 E11.0733
G1 X85.032 Y62.964 E11.13134
G1 X85.164 Y65.05 E11.2165
G1 X85.133 Y65.733 E11.24436
G1 X84.893 Y67.37 E11.31177
G1 X85.113 Y67.734 E11.3291
G1 X86.855 Y70.004 E11.44568
G1 X87.547 Y71.172 E11.501
G1 X88.032 Y72.697 E11.5662
G1 X88.033 Y74.466 E11.63827
G1 X87.423 Y76.223 E11.71405
G1 X86.368 Y77.399 E11.77842
G1 X85.312 Y78.161 E11.83148
G1 X83.693 Y78.73 E11.9014
G1 X82.535 Y78.786 E11.94863
G1 X81.216 Y78.684 E12.00253
G1 X80.466 Y78.538 E12.03367
G1 X78.955 Y78.07 E12.09811
G1 X77.805 Y77.572 E12.14917
G1 X76.728 Y76.959 E12.19966
G1 X75.184 Y75.773 E12.27899
G1 X74.008 Y74.293 E12.35601
G1 X73.558 Y73.56 E12.39105
G1 X73.103 Y72.628 E12.43331
G1 X72.502 Y70.955 E12.50574
G1 X72.345 Y70.666 E12.51914
G1 X72.209 Y70.53 E12.52698
G1 X71.98 Y70.421 E12.53731
G1 X71.291 Y70.258 E12.56616
G1 X70.619 Y70.13 E12.59403
G1 X69.566 Y70.003 E12.63724
G1 X68.903 Y69.941 E12.66437
G1 X67.925 Y69.876 E12.70431
G1 X67.001 Y69.827 E12.74201
G1 X65.728 Y69.777 E12.79391
G1 X63.927 Y69.738 E12.86731
G1 X62.344 Y69.726 E12.93181
G1 X59.906 Y69.74 E13.03115
G1 X58.489 Y69.768 E13.08889
G1 X56.745 Y69.828 E13.15999
G1 X55.765 Y69.882 E13.19998
G1 X54.658 Y69.97 E13.24522
G1 X53.596 Y70.084 E13.28874
G1 X52.989 Y70.174 E13.31374
G1 X52.196 Y70.337 E13.34673
G1 X51.683 Y70.509 E13.36877
G1 X51.581 Y70.581 E13.37386
G1 X51.382 Y70.864 E13.38796
G1 X50.858 Y72.335 E13.45158
G1 X50.552 Y73.041 E13.48293
G1 X49.91 Y74.174 E13.53599
G1 X48.945 Y75.412 E13.59994
G1 X47.988 Y76.321 E13.65372
G1 X47.187 Y76.915 E13.69435
G1 X46.523 Y77.325 E13.72615
G1 X45.143 Y77.983 E13.78844
G1 X43.935 Y78.406 E13.84059
G1 X42.823 Y78.67 E13.88715
G1 X41.062 Y78.792 E13.95907
G1 X40.012 Y78.698 E14.00203
G1 X38.435 Y78.162 E14.06989
G1 X37.241 Y77.212 E14.13206
G1 X36.763 Y76.683 E14.16111
G1 X36.07 Y75.381 E14.2212
G1 X35.794 Y74.032 E14.2773
G1 X35.792 Y73.022 E14.31845
G1 X36.13 Y71.567 E14.37931
G1 X36.752 Y70.382 E14.43384
G1 X37.481 Y69.339 E14.48569
G1 X38.853 Y67.586 E14.57639
G1 X38.949 Y67.411 E14.58452
G1 X38.701 Y65.666 E14.65633
G1 X38.676 Y64.71 E14.6953
G1 X38.821 Y63.147 E14.75925
G1 X38.908 Y62.731 E14.77657
G1 X39.434 Y61.16 E14.84407
G1 X39.861 Y60.284 E14.88377
G1 X40.025 Y60.011 E14.89675
G1 X39.535 Y59.112 E14.93847
G1 X39 Y57.837 E14.9948
G1 X38.707 Y55.988 E15.07108
G1 X38.682 Y54.494 E15.13196
G1 X38.836 Y53.209 E15.18469
G1 X38.931 Y52.607 E15.20952
G1 X38.659 Y52.193 E15.2297
G1 X36.86 Y49.831 E15.35067
G1 X36.221 Y48.712 E15.40317
G1 X35.751 Y47.017 E15.47484
G1 X35.857 Y45.463 E15.5383
G1 X36.168 Y44.368 E15.58468
G1 X36.614 Y43.604 E15.62073
G0 F1620 X36.942 Y43.042
G0 F4320 X37.212 Y43.274
G1 F1800 X38.381 Y42.347 E15.68151
G1 X39.67 Y41.752 E15.73936
G1 X41.298 Y41.545 E15.80622
G1 X43.18 Y41.792 E15.88356
G1 X44.457 Y42.153 E15.93763
G1 X45.767 Y42.706 E15.99556
G1 X46.724 Y43.238 E16.04017
G1 X47.811 Y44.032 E16.09502
G1 X48.923 Y45.123 E16.15849
G1 X49.559 Y45.953 E16.20109
G1 X49.848 Y46.415 E16.2233
G1 X50.535 Y47.841 E16.28779
G1 X51.085 Y49.391 E16.3548
G1 X51.286 Y49.683 E16.36924
G1 X51.719 Y49.908 E16.38912
G1 X52.462 Y50.106 E16.42045
G1 X53.04 Y50.2 E16.44431
G1 X53.675 Y50.289 E16.47044
G1 X54.175 Y50.346 E16.49094
G1 X55.617 Y50.469 E16.54991
G1 X57.435 Y50.559 E16.62407
G1 X58.42 Y50.591 E16.66422
G1 X59.894 Y50.62 E16.72429
G1 X61.068 Y50.63 E16.77213
G1 X63.128 Y50.626 E16.85606
G1 X65.351 Y50.588 E16.94665
G1 X67.097 Y50.528 E17.01783
G1 X68.342 Y50.455 E17.06864
G1 X69.67 Y50.334 E17.12297
G1 X70.229 Y50.27 E17.14589
G1 X71.268 Y50.108 E17.18874
G1 X72.103 Y49.895 E17.22385
G1 X72.313 Y49.803 E17.23319
G1 X72.524 Y49.642 E17.244
G1 X72.788 Y49.239 E17.26363
G1 X73.255 Y47.899 E17.32145
G1 X73.653 Y46.992 E17.36181
G1 X74.248 Y45.955 E17.41052
G1 X74.935 Y45.049 E17.45684
G1 X75.733 Y44.235 E17.50329
G1 X76.694 Y43.472 E17.55328
G1 X77.506 Y42.964 E17.59231
G1 X78.637 Y42.413 E17.64357
G1 X80.176 Y41.877 E17.70997
G1 X81.25 Y41.655 E17.75465
G1 X82.727 Y41.558 E17.81496
G1 X83.82 Y41.654 E17.85966
G1 X85.375 Y42.247 E17.92747
G1 X86.37 Y43.092 E17.98066
G1 X87.064 Y43.997 E18.02712
G1 X87.677 Y45.438 E18.09093
G1 X87.691 Y46.978 E18.15367
G1 X87.314 Y48.481 E18.21681
G1 X86.381 Y50.039 E18.2908
G1 X84.805 Y52.053 E18.39499
G1 X84.516 Y52.524 E18.41751
G1 X84.664 Y53.416 E18.45435
G1 X84.781 Y54.57 E18.50161
G1 X84.751 Y56.138 E18.56551
G1 X84.515 Y57.634 E18.62721
G1 X83.94 Y59.002 E18.68767
G1 X83.391 Y59.986 E18.73358
G1 X83.725 Y60.548 E18.76022
G1 X84.256 Y61.719 E18.81261
G1 X84.686 Y63.033 E18.86894
G1 X84.814 Y65.034 E18.95063
G1 X84.783 Y65.717 E18.97849
G1 X84.529 Y67.444 E19.04961
G1 X84.819 Y67.925 E19.07249
G1 X86.554 Y70.182 E19.18848
G1 X87.224 Y71.313 E19.24204
G1 X87.682 Y72.753 E19.30361
G1 X87.683 Y74.406 E19.37096
G1 X87.115 Y76.041 E19.44148
G1 X86.131 Y77.138 E19.50152
G1 X85.147 Y77.848 E19.55096
G1 X83.627 Y78.382 E19.6166
G1 X82.518 Y78.436 E19.66184
G1 X81.283 Y78.34 E19.71231
G1 X80.533 Y78.194 E19.74344
G1 X79.094 Y77.749 E19.80481
G1 X77.944 Y77.251 E19.85587
G1 X76.941 Y76.681 E19.90288
G1 X75.431 Y75.521 E19.98046
G1 X74.306 Y74.11 E20.05398
G1 X73.873 Y73.406 E20.08766
G1 X73.418 Y72.474 E20.12991
G1 X72.823 Y70.812 E20.20184
G1 X72.629 Y70.455 E20.21839
G1 X72.413 Y70.24 E20.23081
G1 X72.096 Y70.088 E20.24513
G1 X71.369 Y69.916 E20.27557
G1 X70.671 Y69.783 E20.30452
G1 X69.607 Y69.656 E20.34818
G1 X68.926 Y69.592 E20.37605
G1 X67.944 Y69.526 E20.41615
G1 X67.02 Y69.477 E20.45385
G1 X65.742 Y69.427 E20.50596
G1 X63.935 Y69.388 E20.5796
G1 X62.345 Y69.376 E20.64439
G1 X59.899 Y69.39 E20.74405
G1 X58.477 Y69.418 E20.802
G1 X56.733 Y69.478 E20.87309
G1 X55.737 Y69.533 E20.91374
G1 X54.63 Y69.621 E20.95898
G1 X53.559 Y69.736 E21.00287
G1 X52.922 Y69.83 E21.0291
G1 X52.105 Y69.998 E21.06309
G1 X51.523 Y70.193 E21.0881
G1 X51.33 Y70.33 E21.09774
G1 X51.067 Y70.704 E21.11637
G1 X50.528 Y72.218 E21.18185
G1 X50.247 Y72.868 E21.2107
G1 X49.605 Y74.001 E21.26376
G1 X48.703 Y75.159 E21.32356
G1 X47.779 Y76.04 E21.37558
G1 X47.003 Y76.617 E21.41498
G1 X46.339 Y77.027 E21.44678
G1 X44.993 Y77.667 E21.5075
G1 X43.854 Y78.065 E21.55666
G1 X42.742 Y78.329 E21.60323
G1 X41.093 Y78.443 E21.67057
G1 X40.081 Y78.352 E21.71197
G1 X38.605 Y77.851 E21.77548
G1 X37.501 Y76.977 E21.83285
G1 X37.05 Y76.478 E21.86025
G1 X36.403 Y75.262 E21.91637
G1 X36.144 Y73.996 E21.96902
G1 X36.142 Y73.062 E22.00708
G1 X36.461 Y71.691 E22.06443
G1 X37.062 Y70.545 E22.11715
G1 X37.757 Y69.555 E22.16644
G1 X39.146 Y67.78 E22.25827
G1 X39.312 Y67.478 E22.27231
G1 X39.051 Y65.657 E22.34726
G1 X39.026 Y64.701 E22.38623
G1 X39.164 Y63.219 E22.44687
G1 X39.251 Y62.803 E22.46419
G1 X39.749 Y61.313 E22.52819
G1 X40.161 Y60.465 E22.56661
G1 X40.429 Y60.02 E22.58777
G1 X39.858 Y58.976 E22.63626
G1 X39.339 Y57.74 E22.69087
G1 X39.057 Y55.981 E22.76346
G1 X39.03 Y54.536 E22.82234
G1 X39.182 Y53.264 E22.87454
G1 X39.298 Y52.529 E22.90485
G1 X38.943 Y51.989 E22.93118
G1 X37.164 Y49.657 E23.05069
G1 X36.546 Y48.575 E23.10146
G1 X36.104 Y46.981 E23.16885
G1 X36.203 Y45.526 E23.22827
G1 X36.493 Y44.505 E23.27152
G1 X36.884 Y43.836 E23.30309
G0 F1620 X37.212 Y43.274
G0 F4320 X37.482 Y43.506
G1 F1800 X38.563 Y42.649 E23.3593
G1 X39.769 Y42.092 E23.41342
G1 X41.297 Y41.898 E23.47618
G1 X43.085 Y42.129 E23.54963
G1 X44.362 Y42.49 E23.6037
G1 X45.598 Y43.012 E23.65837
G1 X46.518 Y43.521 E23.7012
G1 X47.566 Y44.282 E23.75397
G1 X48.645 Y45.336 E23.81543
G1 X49.262 Y46.139 E23.85669
G1 X49.551 Y46.601 E23.87889
G1 X50.205 Y47.958 E23.94027
G1 X50.77 Y49.549 E24.00906
G1 X51.034 Y49.933 E24.02804
G1 X51.262 Y50.093 E24.03939
G1 X51.604 Y50.239 E24.05454
G1 X52.387 Y50.448 E24.08756
G1 X52.992 Y50.547 E24.11254
G1 X53.63 Y50.636 E24.13879
G1 X54.14 Y50.695 E24.1597
G1 X55.597 Y50.819 E24.21928
G1 X57.418 Y50.909 E24.29357
G1 X58.409 Y50.941 E24.33397
G1 X59.887 Y50.97 E24.3942
G1 X61.066 Y50.98 E24.44223
G1 X63.134 Y50.976 E24.52649
G1 X65.363 Y50.938 E24.61732
G1 X67.109 Y50.878 E24.6885
G1 X68.374 Y50.804 E24.74013
G1 X69.702 Y50.683 E24.79446
G1 X70.273 Y50.617 E24.81788
G1 X71.334 Y50.452 E24.86163
G1 X72.222 Y50.226 E24.89897
G1 X72.491 Y50.108 E24.91093
G1 X72.784 Y49.884 E24.92596
G1 X73.105 Y49.395 E24.94979
G1 X73.586 Y48.014 E25.00938
G1 X73.957 Y47.166 E25.04709
G1 X74.552 Y46.129 E25.0958
G1 X75.185 Y45.294 E25.13849
G1 X75.983 Y44.48 E25.18494
G1 X76.88 Y43.769 E25.23157
G1 X77.692 Y43.261 E25.2706
G1 X78.752 Y42.744 E25.31865
G1 X80.291 Y42.208 E25.38505
G1 X81.32 Y41.998 E25.42784
G1 X82.696 Y41.907 E25.48402
G1 X83.742 Y41.999 E25.5268
G1 X85.195 Y42.553 E25.59016
G1 X86.114 Y43.333 E25.63927
G1 X86.76 Y44.176 E25.68255
G1 X87.328 Y45.511 E25.74166
G1 X87.341 Y46.938 E25.7998
G1 X86.988 Y48.345 E25.8589
G1 X86.105 Y49.823 E25.92905
G1 X84.519 Y51.85 E26.03392
G1 X84.19 Y52.381 E26.05937
G1 X84.16 Y52.514 E26.06492
G1 X84.316 Y53.452 E26.10366
G1 X84.431 Y54.564 E26.14921
G1 X84.405 Y56.084 E26.21115
G1 X84.176 Y57.538 E26.27112
G1 X83.634 Y58.832 E26.32828
G1 X82.987 Y59.992 E26.3824
G1 X83.424 Y60.727 E26.41724
G1 X83.923 Y61.828 E26.46649
G1 X84.34 Y63.102 E26.52111
G1 X84.464 Y65.018 E26.59934
G1 X84.433 Y65.701 E26.62719
G1 X84.172 Y67.467 E26.69993
G1 X84.231 Y67.678 E26.70886
G1 X84.537 Y68.132 E26.73116
G1 X86.276 Y70.395 E26.84744
G1 X86.901 Y71.454 E26.89755
G1 X87.332 Y72.809 E26.95548
G1 X87.333 Y74.346 E27.0181
G1 X86.807 Y75.859 E27.08337
