;FLAVOR:Marlin
;TIME:1176
;Filament used: 0.396058m
;Layer height: 0.13125
;MINX:40.044
;MINY:40.045
;MINZ:0.263
;MAXX:80.325
;MAXY:80.325
;MAXZ:20.044
;Generated with Cura_SteamEngine 5.4.0
M140 S70
M105
M190 S70
M104 S235
M105
M109 S235
M82 ;absolute extrusion mode
G21;(metric values)
G90;(absolute positioning)
M82;(set extruder to absolute mode)
M107;(start with the fan off)
G28;(Home the printer)
G92 E0;(Reset the extruder to 0)
G0 Z5 E5 F500;(Move up and prime the nozzle)
G0 X-1 Z0;(Move outside the printable area)
G1 Y60 E8 F500;(Draw a priming/wiping line to the rear)
G1 X-1;(Move a little closer to the print area)
G1 Y10 E16 F500;(draw more priming/wiping)
G1 E15 F250;(Small retract)
G92 E0;(Zero the extruder)
G92 E0
G92 E0
G1 F2400 E-1
;LAYER_COUNT:152
;LAYER:0
M107
G0 F4320 X42.23 Y43.762 Z0.263
;TYPE:SKIRT
G1 F2400 E0
G1 F1800 X44.898 Y41.541 E0.13285
G1 X47.703 Y40.31 E0.25008
G1 X49.613 Y40.083 E0.32369
G1 X70.038 Y40.045 E1.10536
G1 X73.189 Y40.422 E1.22681
G1 X76.584 Y42.205 E1.37356
G1 X78.833 Y44.899 E1.50786
G1 X80.059 Y47.693 E1.62463
G1 X80.286 Y49.612 E1.69858
G1 X80.325 Y71.191 E2.52441
G1 X79.71 Y73.664 E2.62194
G1 X78.139 Y76.607 E2.74961
G1 X75.471 Y78.828 E2.88246
G1 X72.666 Y80.059 E2.99969
G1 X70.756 Y80.286 E3.0733
G1 X49.177 Y80.325 E3.89913
G1 X46.704 Y79.71 E3.99665
G1 X43.761 Y78.139 E4.12432
G1 X41.54 Y75.471 E4.25718
G1 X40.309 Y72.666 E4.3744
G1 X40.082 Y70.756 E4.44801
G1 X40.044 Y49.178 E5.27381
G1 X40.659 Y46.705 E5.37133
G1 X41.904 Y44.374 E5.47246
G0 F1620 X42.23 Y43.762
G0 F4320 X42.507 Y43.987
G1 F1800 X45.085 Y41.841 E5.60083
G1 X47.794 Y40.652 E5.71405
G1 X49.654 Y40.431 E5.78573
G1 X70.039 Y40.395 E6.56587
G1 X73.082 Y40.761 E6.68316
G1 X76.36 Y42.483 E6.82487
G1 X78.531 Y45.084 E6.95453
G1 X79.717 Y47.787 E7.06749
G1 X79.938 Y49.653 E7.1394
G1 X79.975 Y71.147 E7.96198
G1 X79.38 Y73.538 E8.05627
G1 X77.862 Y76.382 E8.17964
G1 X75.284 Y78.528 E8.30801
G1 X72.575 Y79.717 E8.42123
G1 X70.715 Y79.938 E8.49292
G1 X49.221 Y79.975 E9.31549
G1 X46.83 Y79.38 E9.40978
G1 X43.986 Y77.862 E9.53316
G1 X41.84 Y75.284 E9.66153
G1 X40.651 Y72.575 E9.77475
G1 X40.43 Y70.715 E9.84643
G1 X40.394 Y49.222 E10.66897
G1 X40.989 Y46.831 E10.76326
G1 X42.181 Y44.599 E10.8601
G0 F1620 X42.507 Y43.987
G0 F4320 X42.784 Y44.212
G1 F1800 X45.272 Y42.141 E10.98398
G1 X47.885 Y40.994 E11.09319
G1 X49.695 Y40.779 E11.16295
G1 X69.997 Y40.743 E11.93991
G1 X72.977 Y41.101 E12.05477
G1 X76.136 Y42.761 E12.19134
G1 X78.231 Y45.271 E12.31646
G1 X79.375 Y47.878 E12.42541
G1 X79.59 Y49.694 E12.4954
G1 X79.625 Y71.102 E13.31468
G1 X79.05 Y73.412 E13.40578
G1 X77.585 Y76.157 E13.52486
G1 X75.097 Y78.228 E13.64874
G1 X72.484 Y79.375 E13.75795
G1 X70.674 Y79.59 E13.82771
G1 X49.266 Y79.625 E14.64699
G1 X46.956 Y79.05 E14.73809
G1 X44.211 Y77.585 E14.85717
G1 X42.14 Y75.097 E14.98106
G1 X40.993 Y72.484 E15.09027
G1 X40.778 Y70.674 E15.16002
G1 X40.744 Y49.267 E15.97927
G1 X41.319 Y46.957 E16.07037
G1 X42.458 Y44.824 E16.16291
G0 F1620 X42.784 Y44.212
G0 F4320 X43.061 Y44.437
G1 F1800 X45.459 Y42.441 E16.28231
G1 X47.976 Y41.336 E16.38751
G1 X49.736 Y41.127 E16.45534
G1 X69.998 Y41.093 E17.23076
G1 X72.869 Y41.44 E17.34144
G1 X75.912 Y43.039 E17.47299
G1 X77.929 Y45.456 E17.59347
G1 X79.033 Y47.972 E17.69861
G1 X79.242 Y49.735 E17.76656
G1 X79.275 Y71.058 E18.58259
G1 X78.721 Y73.285 E18.67041
G1 X77.308 Y75.932 E18.78524
G1 X74.91 Y77.928 E18.90464
G1 X72.393 Y79.033 E19.00984
G1 X70.633 Y79.242 E19.07767
G1 X49.31 Y79.275 E19.8937
G1 X47.083 Y78.721 E19.98153
G1 X44.436 Y77.308 E20.09636
G1 X42.44 Y74.91 E20.21576
G1 X41.335 Y72.393 E20.32096
G1 X41.126 Y70.633 E20.38879
G1 X41.094 Y49.311 E21.20478
G1 X41.648 Y47.084 E21.29261
G1 X42.735 Y45.049 E21.3809
G0 F1620 X43.061 Y44.437
G0 F4320 X43.338 Y44.662
G1 F1800 X45.643 Y42.743 E21.49568
G1 X48.07 Y41.678 E21.59711
G1 X49.777 Y41.475 E21.6629
G1 X69.999 Y41.443 E22.43679
G1 X72.761 Y41.779 E22.54327
G1 X75.688 Y43.317 E22.66981
G1 X77.629 Y45.643 E22.78575
G1 X78.691 Y48.063 E22.88689
G1 X78.894 Y49.776 E22.95291
G1 X78.925 Y71.013 E23.76564
G1 X78.391 Y73.159 E23.85028
G1 X77.031 Y75.707 E23.96081
G1 X74.726 Y77.626 E24.07559
G1 X72.299 Y78.691 E24.17702
G1 X70.592 Y78.894 E24.24281
G1 X49.355 Y78.925 E25.05555
G1 X47.209 Y78.391 E25.14018
G1 X44.661 Y77.031 E25.25071
G1 X42.742 Y74.726 E25.36549
G1 X41.677 Y72.299 E25.46692
G1 X41.474 Y70.592 E25.53271
G1 X41.444 Y49.356 E26.34541
G1 X41.978 Y47.21 E26.43004
G1 X43.012 Y45.274 E26.51404
G0 F1620 X43.338 Y44.662
G0 F4320 X43.615 Y44.887
G1 F1800 X45.83 Y43.043 E26.62434
G1 X48.161 Y42.02 E26.72176
G1 X49.818 Y41.823 E26.78562
G1 X70 Y41.793 E27.55798
G1 X72.653 Y42.118 E27.66027
G1 X75.464 Y43.595 E27.78179
G1 X77.327 Y45.828 E27.89309
G1 X78.349 Y48.157 E27.99042
G1 X78.546 Y49.817 E28.0544
G1 X78.575 Y70.968 E28.86384
G1 X78.061 Y73.033 E28.94528
G1 X76.754 Y75.482 E29.05152
G1 X74.539 Y77.326 E29.16182
G1 X72.208 Y78.349 E29.25924
G1 X70.551 Y78.546 E29.3231
G1 X49.4 Y78.575 E30.13254
G1 X47.335 Y78.061 E30.21398
G1 X44.886 Y76.754 E30.32022
G1 X43.042 Y74.539 E30.43052
G1 X42.019 Y72.208 E30.52794
G1 X41.822 Y70.551 E30.5918
G1 X41.794 Y49.401 E31.40121
G1 X42.308 Y47.336 E31.48265
G1 X43.289 Y45.499 E31.56234
G0 F1620 X43.615 Y44.887
G0 F4320 X43.892 Y45.112
G1 F1800 X46.017 Y43.343 E31.66816
G1 X48.252 Y42.362 E31.76157
G1 X49.859 Y42.171 E31.8235
G1 X70 Y42.143 E32.5943
G1 X72.545 Y42.457 E32.69243
G1 X75.24 Y43.873 E32.80894
G1 X77.025 Y46.013 E32.91559
G1 X78.007 Y48.251 E33.00912
G1 X78.198 Y49.858 E33.07105
G1 X78.225 Y70.924 E33.87725
G1 X77.732 Y72.906 E33.95541
G1 X76.477 Y75.257 E34.0574
G1 X74.352 Y77.026 E34.16321
G1 X72.117 Y78.007 E34.25662
G1 X70.51 Y78.198 E34.31855
G1 X49.444 Y78.225 E35.12475
G1 X47.462 Y77.732 E35.20291
G1 X45.111 Y76.477 E35.3049
G1 X43.342 Y74.352 E35.41072
G1 X42.361 Y72.117 E35.50413
G1 X42.17 Y70.51 E35.56606
G1 X42.144 Y49.445 E36.37222
G1 X42.637 Y47.463 E36.45038
G1 X43.566 Y45.724 E36.52583
G0 F1620 X43.892 Y45.112
G0 F4320 X44.169 Y45.337
G1 F1800 X46.204 Y43.643 E36.62716
G1 X48.343 Y42.704 E36.71656
G1 X49.9 Y42.519 E36.77657
G1 X70 Y42.493 E37.54579
G1 X72.437 Y42.796 E37.63978
G1 X75.016 Y44.151 E37.75127
G1 X76.725 Y46.2 E37.85338
G1 X77.665 Y48.342 E37.9429
G1 X77.85 Y49.899 E38.0029
G1 X77.875 Y70.879 E38.80581
G1 X77.402 Y72.78 E38.88078
G1 X76.2 Y75.032 E38.97847
G1 X74.165 Y76.726 E39.0798
G1 X72.026 Y77.665 E39.1692
G1 X70.469 Y77.85 E39.22921
G1 X49.489 Y77.875 E40.03211
G1 X47.588 Y77.402 E40.10708
G1 X45.336 Y76.2 E40.20477
G1 X43.642 Y74.165 E40.3061
G1 X42.703 Y72.026 E40.3955
G1 X42.518 Y70.469 E40.45551
G1 X42.494 Y49.49 E41.25837
G1 X42.967 Y47.589 E41.33334
G1 X43.843 Y45.949 E41.4045
G0 F1620 X44.169 Y45.337
G0 F4320 X44.446 Y45.562
G1 F1800 X46.391 Y43.943 E41.50134
G1 X48.434 Y43.046 E41.58673
G1 X49.941 Y42.867 E41.64481
G1 X70 Y42.843 E42.41247
G1 X72.329 Y43.135 E42.5023
G1 X74.792 Y44.429 E42.60877
G1 X76.423 Y46.385 E42.70624
G1 X77.323 Y48.436 E42.79196
G1 X77.502 Y49.94 E42.84992
G1 X77.525 Y70.834 E43.64953
G1 X77.072 Y72.654 E43.72131
G1 X75.923 Y74.807 E43.8147
G1 X73.978 Y76.426 E43.91155
G1 X71.935 Y77.323 E43.99694
G1 X70.428 Y77.502 E44.05502
G1 X49.534 Y77.525 E44.85463
G1 X47.714 Y77.072 E44.92641
G1 X45.561 Y75.923 E45.0198
G1 X43.942 Y73.978 E45.11665
G1 X43.045 Y71.935 E45.20204
G1 X42.866 Y70.428 E45.26012
G1 X42.844 Y49.535 E46.05969
G1 X43.297 Y47.715 E46.13147
G1 X44.12 Y46.174 E46.19833
G0 F1620 X44.446 Y45.562
G0 F4320 X44.723 Y45.787
G1 F1800 X46.575 Y44.245 E46.29055
G1 X48.528 Y43.388 E46.37217
G1 X49.982 Y43.215 E46.42821
G1 X70 Y43.193 E47.1943
G1 X72.221 Y43.474 E47.27997
G1 X74.568 Y44.707 E47.38143
G1 X76.123 Y46.572 E47.47436
G1 X76.981 Y48.527 E47.55607
G1 X77.154 Y49.981 E47.61211
G1 X77.175 Y70.79 E48.40846
G1 X76.743 Y72.527 E48.47696
G1 X75.646 Y74.582 E48.56611
G1 X73.794 Y76.124 E48.65834
G1 X71.841 Y76.981 E48.73996
G1 X70.387 Y77.154 E48.796
G1 X49.578 Y77.175 E49.59236
G1 X47.841 Y76.743 E49.66086
G1 X45.786 Y75.646 E49.75001
G1 X44.244 Y73.794 E49.84223
G1 X43.387 Y71.841 E49.92385
G1 X43.214 Y70.387 E49.97989
G1 X43.194 Y49.579 E50.77621
G1 X43.626 Y47.842 E50.84471
G1 X44.397 Y46.399 E50.90732
G0 F1620 X44.723 Y45.787
G0 F4320 X45 Y46.012
G1 F1800 X46.762 Y44.545 E50.99507
G1 X48.619 Y43.73 E51.07268
G1 X50.023 Y43.563 E51.12679
G1 X70 Y43.543 E51.89131
G1 X72.113 Y43.813 E51.97283
G1 X74.344 Y44.985 E52.06927
G1 X75.823 Y46.759 E52.15766
G1 X76.639 Y48.618 E52.23536
G1 X76.806 Y50.022 E52.28947
G1 X76.825 Y70.745 E53.08254
G1 X76.413 Y72.401 E53.14784
G1 X75.369 Y74.357 E53.2327
G1 X73.607 Y75.824 E53.32044
G1 X71.75 Y76.639 E53.39805
G1 X70.346 Y76.806 E53.45216
G1 X49.623 Y76.825 E54.24523
G1 X47.967 Y76.413 E54.31054
G1 X46.011 Y75.369 E54.39539
G1 X44.544 Y73.607 E54.48313
G1 X43.729 Y71.75 E54.56074
G1 X43.562 Y70.346 E54.61485
G1 X43.544 Y49.624 E55.40788
G1 X43.956 Y47.968 E55.47319
G1 X44.674 Y46.624 E55.5315
G0 F1620 X45 Y46.012
G0 F4320 X45.277 Y46.237
G1 F1800 X46.949 Y44.845 E55.61476
G1 X48.71 Y44.072 E55.68836
G1 X50.064 Y43.911 E55.74054
G1 X70 Y43.893 E56.50349
G1 X72.005 Y44.152 E56.58086
G1 X74.12 Y45.263 E56.67229
G1 X75.523 Y46.946 E56.75615
G1 X76.297 Y48.709 E56.82983
G1 X76.458 Y50.063 E56.88201
G1 X76.475 Y70.7 E57.67179
G1 X76.083 Y72.275 E57.7339
G1 X75.092 Y74.132 E57.81446
G1 X73.42 Y75.524 E57.89772
G1 X71.659 Y76.297 E57.97132
G1 X70.305 Y76.458 E58.0235
G1 X49.668 Y76.475 E58.81328
G1 X48.093 Y76.083 E58.87539
G1 X46.236 Y75.092 E58.95595
G1 X44.844 Y73.42 E59.03921
G1 X44.071 Y71.659 E59.11281
G1 X43.91 Y70.305 E59.16499
G1 X43.894 Y49.669 E59.95473
G1 X44.286 Y48.094 E60.01684
G1 X44.951 Y46.849 E60.07086
G0 F1620 X45.277 Y46.237
G0 F4320 X45.554 Y46.462
G1 F1800 X47.136 Y45.145 E60.14964
G1 X48.801 Y44.414 E60.21923
G1 X50.105 Y44.259 E60.26948
G1 X70 Y44.243 E61.03086
G1 X71.897 Y44.491 E61.10408
G1 X73.896 Y45.541 E61.19049
G1 X75.223 Y47.133 E61.26981
G1 X75.955 Y48.8 E61.33948
G1 X76.11 Y50.104 E61.38974
G1 X76.125 Y70.655 E62.17622
G1 X75.753 Y72.149 E62.23514
G1 X74.815 Y73.907 E62.3114
G1 X73.233 Y75.224 E62.39018
G1 X71.568 Y75.955 E62.45977
G1 X70.264 Y76.11 E62.51002
G1 X49.713 Y76.125 E63.29651
G1 X48.219 Y75.753 E63.35543
G1 X46.461 Y74.815 E63.43169
G1 X45.144 Y73.233 E63.51046
G1 X44.413 Y71.568 E63.58005
G1 X44.258 Y70.264 E63.63031
G1 X44.244 Y49.714 E64.41676
G1 X44.616 Y48.22 E64.47568
G1 X45.228 Y47.074 E64.5254
G0 F1620 X45.554 Y46.462
G0 F4320 X45.831 Y46.687
G1 F1800 X47.323 Y45.445 E64.59969
G1 X48.892 Y44.756 E64.66527
G1 X50.146 Y44.607 E64.7136
G1 X70 Y44.593 E65.47341
G1 X71.789 Y44.83 E65.54247
G1 X73.672 Y45.819 E65.62387
G1 X74.923 Y47.32 E65.69865
G1 X75.613 Y48.891 E65.76431
G1 X75.762 Y50.145 E65.81264
G1 X75.775 Y70.611 E66.59587
G1 X75.424 Y72.022 E66.65152
G1 X74.538 Y73.682 E66.72353
G1 X73.046 Y74.924 E66.79782
G1 X71.477 Y75.613 E66.8634
G1 X70.223 Y75.762 E66.91173
G1 X49.757 Y75.775 E67.69496
G1 X48.346 Y75.424 E67.75061
G1 X46.686 Y74.538 E67.82262
G1 X45.444 Y73.046 E67.89691
G1 X44.755 Y71.477 E67.96249
G1 X44.606 Y70.223 E68.01082
G1 X44.594 Y49.758 E68.79401
G1 X44.945 Y48.347 E68.84966
G1 X45.505 Y47.299 E68.89513
G0 F1620 X45.831 Y46.687
G0 F4320 X46.108 Y46.912
G1 F1800 X47.51 Y45.745 E68.96494
G1 X48.983 Y45.098 E69.02651
G1 X50.187 Y44.955 E69.07291
G1 X70 Y44.943 E69.83116
G1 X71.681 Y45.169 E69.89607
G1 X73.448 Y46.097 E69.97245
G1 X74.623 Y47.507 E70.04269
G1 X75.271 Y48.982 E70.10434
G1 X75.414 Y50.186 E70.15074
G1 X75.425 Y70.566 E70.93069
G1 X75.094 Y71.896 E70.98314
G1 X74.261 Y73.457 E71.05085
G1 X72.859 Y74.624 E71.12066
G1 X71.386 Y75.271 E71.18223
G1 X70.182 Y75.414 E71.22863
G1 X49.802 Y75.425 E72.00857
G1 X48.472 Y75.094 E72.06102
G1 X46.911 Y74.261 E72.12874
G1 X45.744 Y72.859 E72.19855
G1 X45.097 Y71.386 E72.26012
G1 X44.954 Y70.182 E72.30652
G1 X44.944 Y49.803 E73.08642
G1 X45.275 Y48.473 E73.13887
G1 X45.782 Y47.524 E73.18005
G0 F1620 X46.108 Y46.912
G0 F4320 X46.385 Y47.137
G1 F1800 X47.697 Y46.045 E73.24538
G1 X49.074 Y45.44 E73.30294
G1 X50.228 Y45.303 E73.34741
G1 X70 Y45.293 E74.10408
G1 X71.573 Y45.508 E74.16484
G1 X73.224 Y46.375 E74.23621
G1 X74.323 Y47.694 E74.30191
G1 X74.929 Y49.073 E74.35956
G1 X75.066 Y50.227 E74.40403
G1 X75.075 Y70.521 E75.18068
G1 X74.764 Y71.77 E75.22994
G1 X73.984 Y73.232 E75.29335
G1 X72.672 Y74.324 E75.35868
G1 X71.295 Y74.929 E75.41624
G1 X70.141 Y75.066 E75.46071
G1 X49.847 Y75.075 E76.23736
G1 X48.598 Y74.764 E76.28662
G1 X47.136 Y73.984 E76.35004
G1 X46.044 Y72.672 E76.41536
G1 X45.439 Y71.295 E76.47292
G1 X45.302 Y70.141 E76.5174
G1 X45.294 Y49.848 E77.29401
G1 X45.605 Y48.599 E77.34327
G1 X46.059 Y47.749 E77.38015
G0 F1620 X46.385 Y47.137
G0 F4320 X46.662 Y47.362
G1 F1800 X47.884 Y46.345 E77.44099
G1 X49.167 Y45.781 E77.49463
G1 X50.228 Y45.653 E77.53552
G1 X70 Y45.643 E78.2922
G1 X71.465 Y45.847 E78.3488
G1 X73 Y46.653 E78.41515
G1 X74.023 Y47.881 E78.47632
G1 X74.588 Y49.166 E78.53004
G1 X74.716 Y50.227 E78.57094
G1 X74.725 Y70.477 E79.34591
G1 X74.435 Y71.643 E79.39189
G1 X73.707 Y73.007 E79.45106
G1 X72.485 Y74.024 E79.5119
G1 X71.202 Y74.588 E79.56554
G1 X70.141 Y74.716 E79.60643
G1 X49.891 Y74.725 E80.3814
G1 X48.725 Y74.435 E80.42738
G1 X47.361 Y73.707 E80.48655
G1 X46.344 Y72.485 E80.5474
G1 X45.78 Y71.202 E80.60103
G1 X45.652 Y70.141 E80.64193
G1 X45.644 Y49.892 E81.41686
G1 X45.934 Y48.726 E81.46284
G1 X46.336 Y47.974 E81.49547
G0 F1620 X46.662 Y47.362
G0 F4320 X46.939 Y47.587
G1 F1800 X48.071 Y46.645 E81.55183
G1 X49.26 Y46.122 E81.60154
G1 X50.228 Y46.003 E81.63887
G1 X70 Y45.993 E82.39554
G1 X71.357 Y46.186 E82.448
G1 X72.776 Y46.931 E82.50933
G1 X73.723 Y48.068 E82.56596
G1 X74.247 Y49.259 E82.61576
G1 X74.366 Y50.227 E82.65308
G1 X74.375 Y70.432 E83.42632
G1 X74.105 Y71.517 E83.46911
G1 X73.43 Y72.782 E83.52399
G1 X72.298 Y73.724 E83.58034
G1 X71.109 Y74.247 E83.63005
G1 X70.141 Y74.366 E83.66738
G1 X49.936 Y74.375 E84.44062
G1 X48.851 Y74.105 E84.48341
G1 X47.586 Y73.43 E84.53828
G1 X46.644 Y72.298 E84.59464
G1 X46.121 Y71.109 E84.64435
G1 X46.002 Y70.141 E84.68168
G1 X45.994 Y49.937 E85.45488
G1 X46.264 Y48.852 E85.49767
G1 X46.613 Y48.199 E85.52601
G0 F1620 X46.939 Y47.587
G0 F4320 X47.216 Y47.812
G1 F1800 X48.258 Y46.945 E85.57789
G1 X49.353 Y46.463 E85.62367
G1 X50.228 Y46.353 E85.65742
G1 X70 Y46.343 E86.41409
G1 X71.246 Y46.523 E86.46227
G1 X72.552 Y47.209 E86.51873
G1 X73.423 Y48.255 E86.57082
G1 X73.906 Y49.352 E86.61669
G1 X74.016 Y50.227 E86.65044
G1 X74.025 Y70.387 E87.42196
G1 X73.775 Y71.391 E87.46156
G1 X73.153 Y72.557 E87.51214
G1 X72.111 Y73.424 E87.56401
G1 X71.016 Y73.906 E87.6098
G1 X70.141 Y74.016 E87.64355
G1 X49.981 Y74.025 E88.41507
G1 X48.977 Y73.775 E88.45467
G1 X47.811 Y73.153 E88.50524
G1 X46.944 Y72.111 E88.55712
G1 X46.462 Y71.016 E88.6029
G1 X46.352 Y70.141 E88.63665
G1 X46.344 Y49.982 E89.40814
G1 X46.594 Y48.978 E89.44773
G1 X46.89 Y48.424 E89.47177
G0 F1620 X47.216 Y47.812
G0 F4320 X47.493 Y48.037
G1 F1800 X48.445 Y47.245 E89.51916
G1 X49.447 Y46.804 E89.56106
G1 X50.228 Y46.703 E89.5912
G1 X70 Y46.693 E90.34787
G1 X71.135 Y46.86 E90.39177
G1 X72.328 Y47.487 E90.44335
G1 X73.123 Y48.442 E90.49091
G1 X73.565 Y49.446 E90.53289
G1 X73.666 Y50.227 E90.56303
G1 X73.675 Y70.343 E91.33286
G1 X73.446 Y71.264 E91.36918
G1 X72.876 Y72.332 E91.41551
G1 X71.924 Y73.124 E91.4629
G1 X70.922 Y73.565 E91.5048
G1 X70.141 Y73.666 E91.53494
G1 X50.025 Y73.675 E92.30478
G1 X49.104 Y73.446 E92.3411
G1 X48.036 Y72.876 E92.38743
G1 X47.244 Y71.924 E92.43482
G1 X46.803 Y70.922 E92.47671
G1 X46.702 Y70.141 E92.50685
G1 X46.694 Y50.026 E93.27665
G1 X46.923 Y49.105 E93.31297
G1 X47.167 Y48.649 E93.33276
G0 F1620 X47.493 Y48.037
G0 F4320 X47.77 Y48.262
G1 F1800 X48.632 Y47.545 E93.37567
G1 X49.541 Y47.145 E93.41368
G1 X50.228 Y47.053 E93.44021
G1 X70 Y47.043 E94.19688
G1 X71.024 Y47.197 E94.23651
G1 X72.104 Y47.765 E94.28321
G1 X72.823 Y48.629 E94.32622
G1 X73.224 Y49.54 E94.36432
G1 X73.316 Y50.227 E94.39084
G1 X73.325 Y70.298 E95.15896
G1 X73.116 Y71.138 E95.19209
G1 X72.599 Y72.107 E95.23412
