;FLAVOR:Marlin
;TIME:1267
;Filament used: 0.402133m
;Layer height: 0.13125
;MINX:45.768
;MINY:45.77
;MINZ:0.306
;MAXX:74.599
;MAXY:74.6
;MAXZ:20.832
;Generated with Cura_SteamEngine 5.4.0
M140 S80
M105
M190 S80
M104 S245
M105
M109 S245
M82 ;absolute extrusion mode
G21;(metric values)
G90;(absolute positioning)
M82;(set extruder to absolute mode)
M107;(start with the fan off)
G28;(Home the printer)
G92 E0;(Reset the extruder to 0)
G0 Z5 E5 F500;(Move up and prime the nozzle)
G0 X-1 Z0;(Move outside the printable area)
G1 Y60 E8 F500;(Draw a priming/wiping line to the rear)
G1 X-1;(Move a little closer to the print area)
G1 Y10 E16 F500;(draw more priming/wiping)
G1 E15 F250;(Small retract)
G92 E0;(Zero the extruder)
G92 E0
G92 E0
G1 F2400 E-4
;LAYER_COUNT:152
;LAYER:-5
M107
G0 F7200 X46.839 Y47.417 Z0.306
;TYPE:SUPPORT-INTERFACE
G1 F2400 E0
G1 F1125 X47.359 Y46.904 E0.07434
G1 X47.819 Y46.552 E0.13329
G1 X48.311 Y46.265 E0.19127
G1 X48.851 Y46.036 E0.25096
G1 X49.524 Y45.847 E0.32211
G1 X50.39 Y45.77 E0.41059
G1 X70.043 Y45.772 E2.4108
G1 X70.845 Y45.841 E2.49272
G1 X71.704 Y46.093 E2.58383
G1 X72.343 Y46.42 E2.65689
G1 X72.832 Y46.754 E2.71716
G1 X73.262 Y47.138 E2.77583
G1 X73.739 Y47.685 E2.8497
G1 X74.18 Y48.438 E2.93851
G1 X74.418 Y49.121 E3.01212
G1 X74.544 Y49.772 E3.07961
G1 X74.599 Y50.386 E3.14235
G1 X74.596 Y70.045 E5.14316
G1 X74.542 Y70.684 E5.20843
G1 X74.405 Y71.295 E5.27216
G1 X74.163 Y71.967 E5.34485
G1 X73.788 Y72.594 E5.41921
G1 X73.345 Y73.162 E5.49252
G1 X72.686 Y73.736 E5.58147
G1 X72.061 Y74.102 E5.65518
G1 X71.524 Y74.331 E5.7146
G1 X70.848 Y74.521 E5.78606
G1 X69.98 Y74.6 E5.87477
G1 X50.323 Y74.596 E7.87538
G1 X49.527 Y74.529 E7.95668
G1 X48.797 Y74.314 E8.03413
G1 X48.261 Y74.079 E8.0937
G1 X47.775 Y73.788 E8.15135
G1 X47.318 Y73.43 E8.21043
G1 X46.905 Y73.011 E8.27031
G1 X46.556 Y72.557 E8.32859
G1 X46.264 Y72.059 E8.38735
G1 X46.035 Y71.521 E8.44686
G1 X45.847 Y70.847 E8.51807
G1 X45.768 Y69.98 E8.60668
G1 X45.773 Y50.324 E10.60719
G1 X45.839 Y49.527 E10.68858
G1 X46.093 Y48.666 E10.77994
G1 X46.429 Y48.012 E10.85478
G1 X46.691 Y47.632 E10.90175
G0 F1012.5 X46.839 Y47.417
G0 F7200 X46.725 Y48.309
G1 F1125 X48.303 Y46.731 E11.12888
G1 F2400 E7.12888
G0 F7200 X51.128 Y46.169
G1 F2400 E11.12888
G1 F1125 X46.172 Y51.125 E11.84221
G1 F2400 E7.84221
G0 F7200 X46.172 Y53.387
G1 F2400 E11.84221
G1 F1125 X53.39 Y46.169 E12.88112
G1 F2400 E8.88112
G0 F7200 X55.653 Y46.169
G1 F2400 E12.88112
G1 F1125 X46.171 Y55.651 E14.24589
G1 F2400 E10.24589
G0 F7200 X46.171 Y57.914
G1 F2400 E14.24589
G1 F1125 X57.915 Y46.17 E15.93624
G1 F2400 E11.93624
G0 F7200 X60.178 Y46.17
G1 F2400 E15.93624
G1 F1125 X46.17 Y60.178 E17.95245
G1 F2400 E13.95245
G0 F7200 X46.17 Y62.441
G1 F2400 E17.95245
G1 F1125 X62.441 Y46.17 E20.29439
G1 F2400 E16.29439
G0 F7200 X64.703 Y46.171
G1 F2400 E20.29439
G1 F1125 X46.169 Y64.704 E22.96197
G1 F2400 E18.96197
G0 F7200 X46.169 Y66.967
G1 F2400 E22.96197
G1 F1125 X66.965 Y46.171 E25.9552
G1 F2400 E21.9552
G0 F7200 X69.228 Y46.171
G1 F2400 E25.9552
G1 F1125 X46.169 Y69.23 E29.27415
G1 F2400 E25.27415
G0 F7200 X46.383 Y71.279
G1 F2400 E29.27415
G1 F1125 X71.277 Y46.384 E32.85729
G1 F2400 E28.85729
G0 F7200 X72.727 Y47.197
G1 F2400 E32.85729
G1 F1125 X47.194 Y72.73 E36.53234
G1 F2400 E32.53234
G0 F7200 X48.458 Y73.729
G1 F2400 E36.53234
G1 F1125 X73.727 Y48.46 E40.16938
G1 F2400 E36.16938
G0 F7200 X74.185 Y50.265
G1 F2400 E40.16938
G1 F1125 X50.261 Y74.188 E43.61276
G1 F2400 E39.61276
G0 F7200 X52.517 Y74.196
G1 F2400 E43.61276
G1 F1125 X74.197 Y52.516 E46.73323
G1 F2400 E42.73323
G0 F7200 X74.197 Y54.778
G1 F2400 E46.73323
G1 F1125 X54.779 Y74.196 E49.52812
G1 F2400 E45.52812
G0 F7200 X57.042 Y74.196
G1 F2400 E49.52812
G1 F1125 X74.196 Y57.042 E51.99715
G1 F2400 E47.99715
G0 F7200 X74.196 Y59.305
G1 F2400 E51.99715
G1 F1125 X59.304 Y74.197 E54.1406
G1 F2400 E50.1406
G0 F7200 X61.567 Y74.197
G1 F2400 E54.1406
G1 F1125 X74.196 Y61.568 E55.95833
G1 F2400 E51.95833
G0 F7200 X74.196 Y63.831
G1 F2400 E55.95833
G1 F1125 X63.829 Y74.198 E57.45048
G1 F2400 E53.45048
G0 F7200 X66.091 Y74.198
G1 F2400 E57.45048
G1 F1125 X74.195 Y66.094 E58.61691
M104 S240
G1 F2400 E54.61691
G0 F7200 X74.195 Y68.357
G1 F2400 E58.61691
G1 F1125 X68.353 Y74.198 E59.4577
G1 F2400 E55.4577
G0 F7200 X70.681 Y74.133
G1 F2400 E59.4577
G1 F1125 X74.131 Y70.683 E59.95427
G1 F2400 E55.95427
G0 F90 X74.131 Y70.683 Z0.525
G0 F7200 X73.746 Y48.291
;TIME_ELAPSED:65.721528
;LAYER:-4
;TYPE:SUPPORT
G1 F2400 E59.95427
G1 F1125 X72.073 Y46.618 E60.10506
G1 X72.187 Y46.676 E60.11322
G1 X72.758 Y47.065 E60.15725
G1 X73.246 Y47.561 E60.2016
G1 X73.561 Y47.973 E60.23465
G1 X73.906 Y48.564 E60.27827
G1 X74.133 Y49.216 E60.32227
G1 X74.239 Y49.747 E60.35678
G1 X74.27 Y50.087 E60.37854
G1 X70.257 Y46.074 E60.74025
G1 X68.978 Y46.068 E60.82177
G1 X74.299 Y51.388 E61.30133
G1 X74.299 Y52.661 E61.38246
G1 X67.706 Y46.068 E61.97672
G1 X66.433 Y46.068 E62.05785
G1 X74.299 Y53.934 E62.76685
G1 X74.299 Y55.207 E62.84799
G1 X65.16 Y46.068 E63.67173
G1 X63.887 Y46.068 E63.75286
G1 X74.299 Y56.48 E64.69134
G1 X74.299 Y57.752 E64.77241
G1 X62.615 Y46.068 E65.82554
G1 X61.342 Y46.068 E65.90668
G1 X74.299 Y59.025 E67.07455
G1 X74.299 Y60.298 E67.15568
G1 X60.069 Y46.068 E68.4383
G1 X58.796 Y46.068 E68.51943
G1 X74.299 Y61.571 E69.91679
G1 X74.299 Y62.844 E69.99792
G1 X57.523 Y46.068 E71.51002
G1 X56.251 Y46.068 E71.59109
G1 X74.299 Y64.116 E73.21784
G1 X74.299 Y65.389 E73.29897
G1 X54.978 Y46.068 E75.04046
G1 X53.705 Y46.068 E75.1216
G1 X74.299 Y66.662 E76.97783
G1 X74.299 Y67.935 E77.05896
G1 X52.432 Y46.068 E79.02993
G1 X51.159 Y46.068 E79.11107
G1 X74.299 Y69.208 E81.19678
G1 X74.299 Y70.226 E81.26166
G1 X74.264 Y70.446 E81.27586
G1 X49.93 Y46.111 E83.46924
G1 X49.57 Y46.143 E83.49227
G1 X48.884 Y46.338 E83.53773
G1 X74.027 Y71.482 E85.80403
G1 X73.816 Y71.96 E85.83733
G1 X73.599 Y72.326 E85.86445
G1 X48.033 Y46.761 E88.16878
G1 X47.454 Y47.202 E88.21517
G1 X47.335 Y47.335 E88.22654
G1 X73.034 Y73.034 E90.54291
G1 X72.506 Y73.495 E90.58758
G1 X72.327 Y73.599 E90.60078
G1 X46.756 Y48.029 E92.90556
G1 X46.323 Y48.869 E92.96579
G1 X71.483 Y74.029 E95.23358
G1 X70.806 Y74.222 E95.27844
G1 X70.437 Y74.255 E95.30206
G1 X46.102 Y49.921 E97.49544
G1 X46.068 Y50.134 E97.50918
G1 X46.068 Y51.159 E97.57451
G1 X69.208 Y74.299 E99.66022
G1 X67.935 Y74.299 E99.74136
G1 X46.068 Y52.431 E101.71237
G1 X46.068 Y53.704 E101.79351
G1 X66.662 Y74.299 E103.64978
G1 X65.389 Y74.299 E103.73092
G1 X46.068 Y54.977 E105.47245
G1 X46.068 Y56.25 E105.55359
G1 X64.116 Y74.299 E107.18038
G1 X62.844 Y74.299 E107.26145
G1 X46.068 Y57.523 E108.77355
G1 X46.068 Y58.795 E108.85462
G1 X61.571 Y74.299 E110.25202
G1 X60.298 Y74.299 E110.33315
G1 X46.068 Y60.068 E111.61581
G1 X46.068 Y61.341 E111.69695
G1 X59.025 Y74.299 E112.86487
G1 X57.752 Y74.299 E112.946
G1 X46.068 Y62.614 E113.99918
G1 X46.068 Y63.887 E114.08031
G1 X56.48 Y74.299 E115.01879
G1 X55.207 Y74.299 E115.09993
G1 X46.068 Y65.159 E115.92371
G1 X46.068 Y66.432 E116.00484
G1 X53.934 Y74.299 E116.71389
G1 X52.661 Y74.299 E116.79502
G1 X46.068 Y67.705 E117.38932
G1 X46.068 Y68.978 E117.47046
G1 X51.388 Y74.299 E117.95002
G1 X50.111 Y74.294 E118.03141
G1 X46.096 Y70.28 E118.39325
G1 X46.145 Y70.807 E118.42699
G1 X46.355 Y71.548 E118.47607
G1 X46.613 Y72.069 E118.51313
G1 X48.291 Y73.747 E118.66437
G1 X47.827 Y73.471 E118.69878
G1 X47.323 Y73.022 E118.7418
G1 X46.953 Y72.598 E118.77767
G1 X46.884 Y72.494 E118.78562
G0 F1012.5 X46.652 Y72.148
G1 F2400 E114.78562
G0 F90 X46.652 Y72.148 Z0.656
G0 F7200 X48.432 Y46.54
;TIME_ELAPSED:115.854596
;LAYER:-3
;TYPE:SUPPORT-INTERFACE
G1 F2400 E118.78562
G1 F1500 X47.977 Y46.804 E118.79565
G1 X47.454 Y47.202 E118.80818
G1 X46.985 Y47.729 E118.82163
G1 X46.692 Y48.153 E118.83145
G1 X46.491 Y48.543 E118.83982
G1 X48.542 Y46.492 E118.89511
G1 X49.313 Y46.216 E118.91072
G1 X46.198 Y49.331 E118.99469
G1 X46.103 Y49.921 E119.00608
G1 X49.911 Y46.113 E119.10874
G1 X50.452 Y46.068 E119.11909
G1 X46.068 Y50.451 E119.23726
G1 X46.068 Y50.946 E119.24669
G1 X50.947 Y46.068 E119.37821
G1 X51.442 Y46.068 E119.38764
G1 X46.068 Y51.441 E119.5325
G1 X46.068 Y51.936 E119.54194
G1 X51.936 Y46.068 E119.70013
G1 X52.431 Y46.068 E119.70957
G1 X46.068 Y52.431 E119.8811
G1 X46.068 Y52.926 E119.89054
G1 X52.926 Y46.068 E120.07541
G1 X53.421 Y46.068 E120.08485
G1 X46.068 Y53.421 E120.28307
G1 X46.068 Y53.916 E120.29251
G1 X53.916 Y46.068 E120.50407
G1 X54.411 Y46.068 E120.51351
G1 X46.068 Y54.411 E120.73842
G1 X46.068 Y54.906 E120.74786
G1 X54.906 Y46.068 E120.98611
G1 X55.401 Y46.068 E120.99555
G1 X46.068 Y55.401 E121.24715
G1 X46.068 Y55.896 E121.25658
G1 X55.896 Y46.068 E121.52153
G1 X56.391 Y46.068 E121.53096
G1 X46.068 Y56.391 E121.80925
G1 X46.068 Y56.886 E121.81869
G1 X56.886 Y46.068 E122.11032
G1 X57.381 Y46.068 E122.11975
G1 X46.068 Y57.381 E122.42473
G1 X46.068 Y57.875 E122.43415
G1 X57.876 Y46.068 E122.75245
G1 X58.371 Y46.068 E122.76189
G1 X46.068 Y58.37 E123.09354
G1 X46.068 Y58.865 E123.10298
G1 X58.866 Y46.068 E123.44797
G1 X59.361 Y46.068 E123.45741
G1 X46.068 Y59.36 E123.81575
G1 X46.068 Y59.855 E123.82518
G1 X59.856 Y46.068 E124.19687
G1 X60.351 Y46.068 E124.2063
G1 X46.068 Y60.35 E124.59133
G1 X46.068 Y60.845 E124.60077
G1 X60.846 Y46.068 E124.99914
G1 X61.341 Y46.068 E125.00858
G1 X46.068 Y61.34 E125.42029
G1 X46.068 Y61.835 E125.42973
G1 X61.836 Y46.068 E125.85479
G1 X62.331 Y46.068 E125.86423
G1 X46.068 Y62.33 E126.30263
G1 X46.068 Y62.825 E126.31207
G1 X62.826 Y46.068 E126.76382
G1 X63.321 Y46.068 E126.77325
G1 X46.068 Y63.32 E127.23834
G1 X46.068 Y63.815 E127.24778
G1 X63.816 Y46.068 E127.72622
G1 X64.311 Y46.068 E127.73565
G1 X46.068 Y64.31 E128.22744
G1 X46.068 Y64.805 E128.23687
G1 X64.806 Y46.068 E128.742
G1 X65.301 Y46.068 E128.75143
G1 X46.068 Y65.3 E129.26991
G1 X46.068 Y65.795 E129.27934
G1 X65.796 Y46.068 E129.81116
G1 X66.291 Y46.068 E129.82059
G1 X46.068 Y66.29 E130.36575
G1 X46.068 Y66.785 E130.37519
G1 X66.786 Y46.068 E130.93369
G1 X67.281 Y46.068 E130.94313
G1 X46.068 Y67.28 E131.51497
G1 X46.068 Y67.775 E131.52441
G1 X67.776 Y46.068 E132.1096
G1 X68.271 Y46.068 E132.11904
G1 X46.068 Y68.27 E132.71757
G1 X46.068 Y68.765 E132.72701
G1 X68.766 Y46.068 E133.33889
G1 X69.261 Y46.068 E133.34832
G1 X46.068 Y69.26 E133.97355
G1 X46.068 Y69.755 E133.98298
G1 X69.756 Y46.068 E134.62155
G1 X70.247 Y46.071 E134.63091
G1 X46.092 Y70.226 E135.28208
G1 X46.133 Y70.68 E135.29077
G1 X70.675 Y46.138 E135.95238
G1 X71.085 Y46.223 E135.96036
G1 X46.224 Y71.084 E136.63056
G1 X46.333 Y71.47 E136.63821
G1 X71.469 Y46.334 E137.31583
G1 X71.814 Y46.484 E137.323
G1 X46.486 Y71.812 E138.00579
G1 X46.65 Y72.143 E138.01283
G1 X72.141 Y46.652 E138.70002
G1 X72.44 Y46.847 E138.70682
G1 X46.848 Y72.44 E139.39675
G1 X47.061 Y72.722 E139.40348
G1 X72.735 Y47.048 E140.09561
G1 X72.984 Y47.294 E140.10228
G1 X47.292 Y72.986 E140.79488
G1 X47.549 Y73.224 E140.80156
G1 X73.229 Y47.544 E141.49384
G1 X73.445 Y47.823 E141.50057
G1 X47.811 Y73.457 E142.19161
G1 X48.118 Y73.645 E142.19847
G1 X73.645 Y48.118 E142.88663
G1 X73.828 Y48.43 E142.89353
G1 X48.431 Y73.827 E143.57818
G1 X48.774 Y73.978 E143.58532
G1 X73.979 Y48.774 E144.26479
G1 X74.106 Y49.141 E144.27219
G1 X49.145 Y74.103 E144.9451
G1 X49.539 Y74.203 E144.95285
G1 X74.198 Y49.544 E145.61761
G1 X74.26 Y49.978 E145.62597
G1 X49.966 Y74.271 E146.28087
G1 X50.434 Y74.299 E146.28981
G1 X74.299 Y50.434 E146.93316
G1 X74.299 Y50.929 E146.9426
G1 X50.929 Y74.299 E147.57261
G1 X51.424 Y74.299 E147.58205
G1 X74.299 Y51.424 E148.19871
G1 X74.299 Y51.919 E148.20815
G1 X51.919 Y74.299 E148.81147
G1 X52.414 Y74.299 E148.8209
G1 X74.299 Y52.414 E149.41088
G1 X74.299 Y52.909 E149.42032
G1 X52.909 Y74.299 E149.99695
G1 X53.404 Y74.299 E150.00638
G1 X74.299 Y53.404 E150.56967
G1 X74.299 Y53.899 E150.57911
G1 X53.899 Y74.299 E151.12905
G1 X54.394 Y74.299 E151.13849
G1 X74.299 Y54.394 E151.67509
G1 X74.299 Y54.889 E151.68452
G1 X54.889 Y74.299 E152.20778
G1 X55.384 Y74.299 E152.21722
G1 X74.299 Y55.384 E152.72713
G1 X74.299 Y55.879 E152.73656
G1 X55.879 Y74.299 E153.23313
G1 X56.374 Y74.299 E153.24257
G1 X74.299 Y56.374 E153.72579
G1 X74.299 Y56.869 E153.73522
G1 X56.869 Y74.299 E154.2051
G1 X57.364 Y74.299 E154.21454
G1 X74.299 Y57.364 E154.67107
G1 X74.299 Y57.859 E154.68051
G1 X57.859 Y74.299 E155.1237
G1 X58.353 Y74.299 E155.13312
G1 X74.299 Y58.353 E155.56299
G1 X74.299 Y58.848 E155.57242
G1 X58.848 Y74.299 E155.98895
G1 X59.343 Y74.299 E155.99839
G1 X74.299 Y59.343 E156.40157
G1 X74.299 Y59.838 E156.41101
G1 X59.838 Y74.299 E156.80085
G1 X60.333 Y74.299 E156.81029
G1 X74.299 Y60.333 E157.18678
G1 X74.299 Y60.828 E157.19622
G1 X60.828 Y74.299 E157.55937
G1 X61.323 Y74.299 E157.5688
G1 X74.299 Y61.323 E157.91861
G1 X74.299 Y61.818 E157.92805
G1 X61.818 Y74.299 E158.26451
G1 X62.313 Y74.299 E158.27395
G1 X74.299 Y62.313 E158.59707
G1 X74.299 Y62.808 E158.6065
G1 X62.808 Y74.299 E158.91628
G1 X63.303 Y74.299 E158.92571
G1 X74.299 Y63.303 E159.22214
G1 X74.299 Y63.798 E159.23158
G1 X63.798 Y74.299 E159.51467
G1 X64.293 Y74.299 E159.5241
G1 X74.299 Y64.293 E159.79384
G1 X74.299 Y64.788 E159.80328
G1 X64.788 Y74.299 E160.05968
G1 X65.283 Y74.299 E160.06911
G1 X74.299 Y65.283 E160.31217
G1 X74.299 Y65.778 E160.3216
G1 X65.778 Y74.299 E160.55131
G1 X66.273 Y74.299 E160.56075
G1 X74.299 Y66.273 E160.77711
G1 X74.299 Y66.768 E160.78655
G1 X66.768 Y74.299 E160.98957
G1 X67.263 Y74.299 E160.99901
G1 X74.299 Y67.263 E161.18868
G1 X74.299 Y67.758 E161.19812
G1 X67.758 Y74.299 E161.37445
G1 X68.253 Y74.299 E161.38389
G1 X74.299 Y68.253 E161.54688
G1 X74.299 Y68.748 E161.55631
G1 X68.748 Y74.299 E161.70595
G1 X69.243 Y74.299 E161.71539
G1 X74.299 Y69.243 E161.85169
G1 X74.299 Y69.738 E161.86113
G1 X69.738 Y74.299 E161.98408
G1 X70.26 Y74.271 E161.99405
G1 X74.297 Y70.234 E162.10288
G1 X74.203 Y70.823 E162.11425
G1 X70.804 Y74.222 E162.20588
G1 X71.497 Y74.025 E162.21961
G1 X74.016 Y71.506 E162.28752
G1 X73.816 Y71.96 E162.29697
G1 X73.467 Y72.547 E162.30999
G1 X73.029 Y73.039 E162.32255
G1 X72.809 Y73.231 E162.32811
G0 F1350 X72.628 Y73.389
G0 X73.444 Y72.573
G1 F2400 E158.32811
G0 F90 X73.444 Y72.573 Z1.182
G0 F7200 X51.383 Y51.383
;TIME_ELAPSED:209.375351
;LAYER:0
M106 S255
;TYPE:FILL
;MESH:four_square_cons.stl
G1 F2400 E162.32811
G1 F1800 X68.984 Y68.984 E163.28071
G1 X69.046 Y69.046
G0 F4320 X64.514 Y68.984
G1 F1800 X68.984 Y64.514 E163.52264
G1 X68.984 Y64.484
G1 X55.883 Y51.383 E164.23169
G1 X55.821 Y51.321
G0 F4320 X55.115 Y51.383
G1 F1800 X51.383 Y55.115 E164.43367
G1 X51.321 Y55.177
G0 F4320 X51.383 Y55.883
G1 F1800 X64.484 Y68.984 E165.14272
G1 X64.546 Y69.046
G0 F4320 X60.014 Y68.984
G1 F1800 X68.984 Y60.014 E165.6282
G1 X68.984 Y59.984
G1 X60.383 Y51.383 E166.0937
G1 X60.321 Y51.321
G0 F4320 X59.615 Y51.383
G1 F1800 X51.383 Y59.615 E166.53923
G1 X51.321 Y59.677
G0 F4320 X51.383 Y60.383
G1 F1800 X59.984 Y68.984 E167.00473
G1 X60.046 Y69.046
G0 F4320 X55.514 Y68.984
G1 F1800 X68.984 Y55.514 E167.73375
G1 X68.984 Y55.484
G1 X64.883 Y51.383 E167.95571
G1 X64.821 Y51.321
G0 F4320 X64.115 Y51.383
G1 F1800 X51.383 Y64.115 E168.64479
G1 X51.321 Y64.177
G0 F4320 X51.383 Y64.883
G1 F1800 X55.484 Y68.984 E168.86674
G1 X55.546 Y69.046
G0 F4320 X51.383 Y68.615
G1 F1800 X68.615 Y51.383 E169.79937
G1 X68.677 Y51.321
G0 F4320 X69.125 Y69.125
;TYPE:WALL-INNER
G1 F1800 X69.125 Y51.243 E170.48371
G1 X51.244 Y51.244 E171.16802
G1 X51.243 Y69.125 E171.85232
G1 X68.431 Y69.125 E172.51011
G0 F1620 X69.125 Y69.125
G0 F4320 X69.475 Y69.475
G1 F1800 X69.475 Y50.893 E173.22124
G1 X50.894 Y50.894 E173.93233
G1 X50.893 Y69.475 E174.64342
G1 X68.781 Y69.475 E175.328
G0 F1620 X69.475 Y69.475
G0 F4320 X69.8 Y69.8
;TYPE:WALL-OUTER
G1 F1800 X69.8 Y50.568 E176.06401
G1 X50.569 Y50.569 E176.79997
G1 X50.568 Y69.8 E177.53594
G1 X69.106 Y69.8 E178.24539
G0 F1620 X69.8 Y69.8
G0 F4320 X69.8 Y69.6
G0 X68.875 Y68.978
;MESH:NONMESH
G0 X51.185 Y51.244
G0 X51.186 Y51.186
;TIME_ELAPSED:225.223429
;LAYER:1
;TYPE:FILL
;MESH:four_square_cons.stl
G1 F2400 X52.976 Y52.976 E178.29365
G1 X53.038 Y53.038
