;FLAVOR:Marlin
;TIME:5705
;Filament used: 3.44405m
;Layer height: 0.13125
;MINX:40.4
;MINY:40.401
;MINZ:0.306
;MAXX:79.599
;MAXY:79.599
;MAXZ:31.007
;Generated with Cura_SteamEngine 5.4.0
M140 S80
M105
M190 S80
M104 S245
M105
M109 S245
M82 ;absolute extrusion mode
G21;(metric values)
G90;(absolute positioning)
M82;(set extruder to absolute mode)
M107;(start with the fan off)
G28;(Home the printer)
G92 E0;(Reset the extruder to 0)
G0 Z5 E5 F500;(Move up and prime the nozzle)
G0 X-1 Z0;(Move outside the printable area)
G1 Y60 E8 F500;(Draw a priming/wiping line to the rear)
G1 X-1;(Move a little closer to the print area)
G1 Y10 E16 F500;(draw more priming/wiping)
G1 E15 F250;(Small retract)
G92 E0;(Zero the extruder)
G92 E0
G92 E0
G1 F3300 E-3
;LAYER_COUNT:228
;LAYER:-6
M107
G0 F7200 X41.566 Y41.954 Z0.306
;TYPE:SUPPORT-INTERFACE
G1 F3300 E0
G1 F1125 X41.989 Y41.537 E0.06045
G1 X42.443 Y41.188 E0.11873
G1 X42.939 Y40.898 E0.17721
G1 X43.476 Y40.669 E0.23663
G1 X44.152 Y40.479 E0.30809
G1 X45.02 Y40.401 E0.39679
G1 X75.045 Y40.404 E3.45262
G1 X75.841 Y40.471 E3.53392
G1 X76.571 Y40.686 E3.61137
G1 X77.103 Y40.919 E3.67048
G1 X77.594 Y41.212 E3.72867
G1 X78.046 Y41.566 E3.7871
G1 X78.463 Y41.989 E3.84756
G1 X78.81 Y42.439 E3.90539
G1 X79.103 Y42.939 E3.96437
G1 X79.331 Y43.476 E4.02375
G1 X79.52 Y44.147 E4.0947
G1 X79.599 Y45.018 E4.18371
G1 X79.596 Y75.045 E7.23974
G1 X79.542 Y75.684 E7.305
G1 X79.405 Y76.295 E7.36873
G1 X79.163 Y76.967 E7.44143
G1 X78.788 Y77.594 E7.51578
G1 X78.345 Y78.162 E7.58909
G1 X77.686 Y78.736 E7.67804
G1 X77.061 Y79.102 E7.75175
G1 X76.524 Y79.331 E7.81117
G1 X75.848 Y79.521 E7.88264
G1 X74.98 Y79.599 E7.97133
G1 X44.955 Y79.596 E11.02716
G1 X44.159 Y79.529 E11.10846
G1 X43.429 Y79.314 E11.18591
G1 X42.893 Y79.079 E11.24547
G1 X42.407 Y78.788 E11.30313
G1 X41.95 Y78.43 E11.36221
G1 X41.537 Y78.011 E11.42209
G1 X41.188 Y77.557 E11.48037
G1 X40.896 Y77.059 E11.53912
G1 X40.667 Y76.521 E11.59863
G1 X40.479 Y75.847 E11.66985
G1 X40.4 Y74.98 E11.75845
G1 X40.404 Y44.955 E14.81428
G1 X40.458 Y44.316 E14.87955
G1 X40.595 Y43.705 E14.94327
G1 X40.837 Y43.033 E15.01597
G1 X41.212 Y42.406 E15.09032
G1 X41.406 Y42.159 E15.12229
G0 F1012.5 X41.566 Y41.954
G0 F7200 X42.043 Y42.043
G1 F1125 X77.962 Y77.962 E20.29222
G1 F3300 E17.29222
G0 F7200 X78.867 Y76.605
G1 F3300 E20.29222
G1 F1125 X43.399 Y41.136 E25.39731
G1 F3300 E22.39731
G0 F7200 X45.326 Y40.801
G1 F3300 E25.39731
G1 F1125 X79.195 Y74.67 E30.27218
G1 F3300 E27.27218
G0 F7200 X79.195 Y72.407
G1 F3300 E30.27218
G1 F1125 X47.589 Y40.801 E34.82132
G1 F3300 E31.82132
G0 F7200 X49.852 Y40.801
G1 F3300 E34.82132
G1 F1125 X79.195 Y70.144 E39.04475
G1 F3300 E36.04475
G0 F7200 X79.195 Y67.882
G1 F3300 E39.04475
G1 F1125 X52.115 Y40.801 E42.94253
G1 F3300 E39.94253
G0 F7200 X54.378 Y40.802
G1 F3300 E42.94253
G1 F1125 X79.196 Y65.62 E46.51466
G1 F3300 E43.51466
G0 F7200 X79.196 Y63.357
G1 F3300 E46.51466
G1 F1125 X56.641 Y40.802 E49.76107
G1 F3300 E46.76107
G0 F7200 X58.904 Y40.802
G1 F3300 E49.76107
G1 F1125 X79.196 Y61.094 E52.68175
G1 F3300 E49.68175
G0 F7200 X79.197 Y58.832
G1 F3300 E52.68175
G1 F1125 X61.167 Y40.802 E55.27687
G1 F3300 E52.27687
G0 F7200 X63.43 Y40.802
G1 F3300 E55.27687
G1 F1125 X79.197 Y56.569 E57.54626
G1 F3300 E54.54626
G0 F7200 X79.197 Y54.307
G1 F3300 E57.54626
G1 F1125 X65.693 Y40.802 E59.49
G1 F3300 E56.49
G0 F7200 X67.956 Y40.803
G1 F3300 E59.49
G1 F1125 X79.198 Y52.045 E61.1081
G1 F3300 E58.1081
G0 F7200 X79.198 Y49.782
G1 F3300 E61.1081
G1 F1125 X70.219 Y40.803 E62.40047
G1 F3300 E59.40047
G0 F7200 X72.481 Y40.803
G1 F3300 E62.40047
G1 F1125 X79.198 Y47.519 E63.3672
G1 F3300 E60.3672
G0 F7200 X79.198 Y45.256
G1 F3300 E63.3672
G1 F1125 X74.744 Y40.803 E64.0082
G1 F3300 E61.0082
G0 F7200 X41.131 Y43.394
G1 F3300 E64.0082
G1 F1125 X76.599 Y78.862 E69.11322
G1 F3300 E66.11322
G0 F7200 X74.672 Y79.198
G1 F3300 E69.11322
G1 F1125 X40.802 Y45.328 E73.98823
G1 F3300 E70.98823
G0 F7200 X40.802 Y47.591
G1 F3300 E73.98823
G1 F1125 X72.409 Y79.198 E78.53752
G1 F3300 E75.53752
G0 F7200 X70.147 Y79.198
G1 F3300 E78.53752
G1 F1125 X40.802 Y49.853 E82.76124
G1 F3300 E79.76124
G0 F7200 X40.802 Y52.115
G1 F3300 E82.76124
G1 F1125 X67.884 Y79.198 E86.6593
G1 F3300 E83.6593
G0 F7200 X65.62 Y79.197
G1 F3300 E86.6593
G1 F1125 X40.802 Y54.378 E90.2315
G1 F3300 E87.2315
G0 F7200 X40.802 Y56.641
G1 F3300 E90.2315
G1 F1125 X63.358 Y79.197 E93.47806
G1 F3300 E90.47806
G0 F7200 X61.095 Y79.197
G1 F3300 E93.47806
G1 F1125 X40.801 Y58.903 E96.39903
G1 F3300 E93.39903
G0 F7200 X40.801 Y61.166
G1 F3300 E96.39903
G1 F1125 X58.831 Y79.196 E98.99415
G1 F3300 E95.99415
G0 F7200 X56.569 Y79.196
G1 F3300 E98.99415
G1 F1125 X40.8 Y63.428 E101.26375
G1 F3300 E98.26375
G0 F7200 X40.8 Y65.69
G1 F3300 E101.26375
G1 F1125 X54.306 Y79.196 E103.20771
G1 F3300 E100.20771
G0 F7200 X52.043 Y79.195
G1 F3300 E103.20771
G1 F1125 X40.8 Y67.953 E104.82588
G1 F3300 E101.82588
G0 F7200 X40.8 Y70.215
G1 F3300 E104.82588
G1 F1125 X49.78 Y79.195 E106.1184
M104 S240
G1 F3300 E103.1184
G0 F7200 X47.517 Y79.195
G1 F3300 E106.1184
G1 F1125 X40.8 Y72.478 E107.0852
G1 F3300 E104.0852
G0 F7200 X40.8 Y74.741
G1 F3300 E107.0852
G1 F1125 X45.254 Y79.195 E107.72627
G1 F3300 E104.72627
G0 F90 X45.254 Y79.195 Z0.525
G0 F7200 X76.425 Y79.047
;TIME_ELAPSED:91.208308
;LAYER:-5
;TYPE:SUPPORT
G1 F3300 E107.72627
G1 F1125 X76.938 Y78.826 E107.76188
G1 X77.505 Y78.495 E107.80372
G1 X78.029 Y78.039 E107.84799
G1 X78.467 Y77.546 E107.89002
G1 X78.816 Y76.96 E107.93349
G1 X79.027 Y76.48 E107.96691
G1 X79.121 Y76.159 E107.98823
G1 X76.157 Y79.123 E108.25539
G1 X75.806 Y79.222 E108.27863
G1 X74.954 Y79.299 E108.33316
G1 X74.707 Y79.299 E108.3489
G1 X79.299 Y74.708 E108.76275
G1 X79.299 Y73.435 E108.84388
G1 X73.435 Y79.299 E109.37243
G1 X72.162 Y79.299 E109.45357
G1 X79.299 Y72.163 E110.09681
G1 X79.299 Y70.89 E110.17795
G1 X70.889 Y79.299 E110.93593
G1 X69.616 Y79.299 E111.01707
G1 X79.299 Y69.617 E111.8898
G1 X79.299 Y68.344 E111.97093
G1 X68.343 Y79.299 E112.9584
G1 X67.071 Y79.299 E113.03947
G1 X79.299 Y67.071 E114.14163
G1 X79.299 Y65.799 E114.2227
G1 X65.798 Y79.299 E115.43957
G1 X64.525 Y79.299 E115.5207
G1 X79.299 Y64.526 E116.8523
G1 X79.299 Y63.253 E116.93344
G1 X63.252 Y79.299 E118.37978
G1 X61.98 Y79.299 E118.46085
G1 X79.299 Y61.98 E120.02189
G1 X79.299 Y60.707 E120.10303
G1 X60.707 Y79.299 E121.77881
G1 X59.434 Y79.299 E121.85994
G1 X79.299 Y59.435 E123.65042
G1 X79.299 Y58.162 E123.73155
G1 X58.161 Y79.299 E125.63677
G1 X56.888 Y79.299 E125.7179
G1 X79.299 Y56.889 E127.73786
G1 X79.299 Y55.616 E127.819
G1 X55.616 Y79.299 E129.95366
G1 X54.343 Y79.299 E130.03479
G1 X79.299 Y54.343 E132.28419
G1 X79.299 Y53.071 E132.36526
G1 X53.07 Y79.299 E134.72935
G1 X51.797 Y79.299 E134.81048
G1 X79.299 Y51.798 E137.28932
G1 X79.299 Y50.525 E137.37045
G1 X50.524 Y79.299 E139.96403
G1 X49.252 Y79.299 E140.0451
G1 X79.299 Y49.252 E142.75337
G1 X79.299 Y47.98 E142.83444
G1 X47.979 Y79.299 E145.65741
G1 X46.706 Y79.299 E145.73855
G1 X79.299 Y46.707 E148.67625
G1 X79.299 Y45.434 E148.75739
G1 X45.433 Y79.299 E151.80984
G1 X44.774 Y79.299 E151.85184
G1 X44.245 Y79.215 E151.88598
G1 X79.232 Y44.228 E155.03952
G1 X79.046 Y43.574 E155.08285
G1 X78.916 Y43.271 E155.10387
G1 X43.269 Y78.918 E158.31689
G1 X43.039 Y78.816 E158.33293
G1 X42.451 Y78.464 E158.3766
G1 X78.46 Y42.454 E161.6223
G1 X78.042 Y41.975 E161.66282
G1 X77.843 Y41.798 E161.6798
G1 X41.799 Y77.842 E164.92861
G1 X41.584 Y77.597 E164.94938
G1 X41.264 Y77.105 E164.98679
G1 X77.117 Y41.252 E168.21838
G1 X76.479 Y40.971 E168.26281
G1 X76.205 Y40.891 E168.281
G1 X40.891 Y76.205 E171.46402
G1 X40.777 Y75.806 E171.49046
G1 X40.713 Y75.11 E171.53501
G1 X75.124 Y40.699 E174.63663
G1 X73.851 Y40.699 E174.71776
G1 X40.7 Y73.85 E177.70581
G1 X40.7 Y72.578 E177.78688
G1 X72.578 Y40.699 E180.66024
G1 X71.306 Y40.699 E180.74131
G1 X40.7 Y71.305 E183.49996
G1 X40.7 Y70.032 E183.5811
G1 X70.033 Y40.699 E186.22502
G1 X68.76 Y40.699 E186.30615
G1 X40.7 Y68.759 E188.83532
G1 X40.7 Y67.486 E188.91646
G1 X67.487 Y40.699 E191.33089
G1 X66.214 Y40.699 E191.41203
G1 X40.7 Y66.214 E193.71176
G1 X40.7 Y64.941 E193.7929
G1 X64.942 Y40.699 E195.97794
G1 X63.669 Y40.699 E196.05907
G1 X40.7 Y63.668 E198.12937
G1 X40.7 Y62.395 E198.21051
G1 X62.396 Y40.699 E200.16607
G1 X61.123 Y40.699 E200.2472
G1 X40.7 Y61.123 E202.08806
G1 X40.7 Y59.85 E202.1692
G1 X59.85 Y40.699 E203.89532
G1 X58.578 Y40.699 E203.97639
G1 X40.7 Y58.577 E205.58781
G1 X40.7 Y57.304 E205.66895
G1 X57.305 Y40.699 E207.16563
G1 X56.032 Y40.699 E207.24677
G1 X40.7 Y56.031 E208.62871
G1 X40.7 Y54.759 E208.70978
G1 X54.759 Y40.699 E209.97703
G1 X53.486 Y40.699 E210.05816
G1 X40.7 Y53.486 E211.21067
G1 X40.7 Y52.213 E211.2918
G1 X52.214 Y40.699 E212.32961
G1 X50.941 Y40.699 E212.41074
G1 X40.7 Y50.94 E213.33381
G1 X40.7 Y49.667 E213.41495
G1 X49.668 Y40.699 E214.22327
G1 X48.395 Y40.699 E214.30441
G1 X40.7 Y48.395 E214.99804
G1 X40.7 Y47.122 E215.07917
G1 X47.123 Y40.699 E215.6581
G1 X45.85 Y40.699 E215.73924
G1 X40.7 Y45.849 E216.20343
G1 X40.7 Y44.773 E216.27201
G1 X40.737 Y44.539 E216.28711
G1 X44.531 Y40.745 E216.62908
G1 X44.192 Y40.776 E216.65078
G1 X43.574 Y40.952 E216.69173
G1 X43.059 Y41.171 E216.7274
G1 X42.509 Y41.494 E216.76805
G1 X41.502 Y42.501 E216.85882
G1 X41.527 Y42.459 E216.86193
G1 X41.975 Y41.955 E216.90491
G1 X42.178 Y41.778 E216.92207
G0 F1012.5 X42.492 Y41.505
G1 F3300 E213.92207
G0 F90 X42.492 Y41.505 Z0.744
G0 F7200 X41.285 Y77.148
;TIME_ELAPSED:183.615080
;LAYER:-4
;TYPE:SUPPORT
G1 F3300 E216.92207
G1 F1125 X41.584 Y77.597 E216.95646
G1 X41.956 Y78.022 E216.99245
G1 X42.459 Y78.471 E217.03543
G1 X43.039 Y78.816 E217.07844
G1 X43.286 Y78.924 E217.09562
G1 X41.019 Y76.657 E217.29995
G1 X40.777 Y75.806 E217.35634
G1 X40.71 Y75.075 E217.40313
G1 X44.933 Y79.299 E217.78381
G1 X46.206 Y79.299 E217.86495
G1 X40.699 Y73.792 E218.36132
G1 X40.699 Y72.519 E218.44245
G1 X47.479 Y79.299 E219.05356
G1 X48.752 Y79.299 E219.1347
G1 X40.699 Y71.246 E219.86055
G1 X40.699 Y69.973 E219.94169
G1 X50.024 Y79.299 E220.78224
G1 X51.297 Y79.299 E220.86337
G1 X40.699 Y68.701 E221.81862
G1 X40.699 Y67.428 E221.89975
G1 X52.57 Y79.299 E222.96974
G1 X53.843 Y79.299 E223.05087
G1 X40.699 Y66.155 E224.2356
G1 X40.699 Y64.882 E224.31673
G1 X55.116 Y79.299 E225.6162
G1 X56.388 Y79.299 E225.69727
G1 X40.699 Y63.609 E227.11144
G1 X40.699 Y62.337 E227.19251
G1 X57.661 Y79.299 E228.72137
G1 X58.934 Y79.299 E228.80251
G1 X40.699 Y61.064 E230.44611
G1 X40.699 Y59.791 E230.52724
G1 X60.207 Y79.299 E232.28559
G1 X61.48 Y79.299 E232.36672
G1 X40.699 Y58.518 E234.23981
G1 X40.699 Y57.245 E234.32094
G1 X62.752 Y79.299 E236.30872
G1 X64.025 Y79.299 E236.38986
G1 X40.699 Y55.973 E238.49234
G1 X40.699 Y54.7 E238.57347
G1 X65.298 Y79.299 E240.79069
G1 X66.571 Y79.299 E240.87182
G1 X40.699 Y53.427 E243.20378
G1 X40.699 Y52.154 E243.28492
G1 X67.844 Y79.299 E245.73162
G1 X69.116 Y79.299 E245.81269
G1 X40.699 Y50.881 E248.37409
G1 X40.699 Y49.609 E248.45516
G1 X70.389 Y79.299 E251.13125
G1 X71.662 Y79.299 E251.21239
G1 X40.699 Y48.336 E254.00322
G1 X40.699 Y47.063 E254.08436
G1 X72.935 Y79.299 E256.98993
G1 X74.208 Y79.299 E257.07107
G1 X40.699 Y45.79 E260.09139
G1 X40.7 Y44.773 E260.1562
G1 X40.735 Y44.553 E260.1704
G1 X75.436 Y79.255 E263.2982
G1 X75.806 Y79.222 E263.32188
G1 X76.484 Y79.03 E263.36679
G1 X40.971 Y43.517 E266.56774
G1 X41.182 Y43.038 E266.6011
G1 X41.399 Y42.672 E266.62822
G1 X77.327 Y78.599 E269.86653
G1 X77.505 Y78.495 E269.87966
G1 X78.034 Y78.034 E269.92439
G1 X41.965 Y41.965 E273.17545
G1 X42.492 Y41.505 E273.22003
G1 X42.672 Y41.399 E273.23335
G1 X78.599 Y77.326 E276.47161
G1 X78.816 Y76.96 E276.49873
G1 X79.027 Y76.482 E276.53203
G1 X43.515 Y40.969 E279.73293
G1 X44.192 Y40.776 E279.7778
G1 X44.561 Y40.743 E279.80141
G1 X79.264 Y75.446 E282.92935
G1 X79.299 Y75.226 E282.94355
G1 X79.299 Y74.208 E283.00843
G1 X45.791 Y40.7 E286.02866
G1 X47.064 Y40.7 E286.10979
G1 X79.299 Y72.935 E289.01528
G1 X79.299 Y71.663 E289.09635
G1 X48.337 Y40.7 E291.88714
G1 X49.609 Y40.7 E291.96821
G1 X79.299 Y70.39 E294.6443
G1 X79.299 Y69.117 E294.72544
G1 X50.882 Y40.7 E297.28679
G1 X52.155 Y40.7 E297.36792
G1 X79.299 Y67.844 E299.81454
G1 X79.299 Y66.571 E299.89567
G1 X53.428 Y40.7 E302.22754
G1 X54.701 Y40.7 E302.30868
G1 X79.299 Y65.299 E304.52585
G1 X79.299 Y64.026 E304.60698
G1 X55.973 Y40.7 E306.70946
G1 X57.246 Y40.7 E306.7906
G1 X79.299 Y62.753 E308.77833
G1 X79.299 Y61.48 E308.85947
G1 X58.519 Y40.7 E310.73246
G1 X59.792 Y40.7 E310.8136
G1 X79.299 Y60.208 E312.5719
G1 X79.299 Y58.935 E312.65303
G1 X61.065 Y40.7 E314.29659
G1 X62.337 Y40.7 E314.37766
G1 X79.299 Y57.662 E315.90652
G1 X79.299 Y56.389 E315.98765
G1 X63.61 Y40.7 E317.40178
G1 X64.883 Y40.7 E317.48291
G1 X79.299 Y55.116 E318.78229
G1 X79.299 Y53.844 E318.86336
G1 X66.156 Y40.7 E320.04804
G1 X67.428 Y40.7 E320.12911
G1 X79.299 Y52.571 E321.1991
G1 X79.299 Y51.298 E321.28023
G1 X68.701 Y40.7 E322.23548
G1 X69.974 Y40.7 E322.31661
G1 X79.299 Y50.025 E323.15712
G1 X79.299 Y48.752 E323.23825
G1 X71.247 Y40.7 E323.96402
G1 X72.52 Y40.7 E324.04515
G1 X79.299 Y47.48 E324.65622
G1 X79.299 Y46.207 E324.73735
G1 X73.792 Y40.7 E325.23372
G1 X75.065 Y40.7 E325.31486
G1 X79.29 Y44.924 E325.69563
G1 X79.222 Y44.194 E325.74236
G1 X79.046 Y43.574 E325.78344
G1 X78.827 Y43.06 E325.81904
G1 X78.494 Y42.492 E325.86101
G1 X78.042 Y41.975 E325.90478
G1 X77.539 Y41.527 E325.94771
G1 X76.96 Y41.183 E325.99063
G1 X76.712 Y41.074 E326.0079
G1 X78.629 Y42.991 E326.18069
G0 F1012.5 X78.923 Y43.285
G1 F3300 E323.18069
G0 F90 X78.923 Y43.285 Z0.875
G0 F7200 X78.61 Y77.306
;TIME_ELAPSED:276.001629
;LAYER:-3
;TYPE:SUPPORT-INTERFACE
G1 F3300 E326.18069
G1 F1500 X77.301 Y78.615 E326.21597
G1 X77.505 Y78.495 E326.22048
G1 X78.029 Y78.039 E326.23373
G1 X78.467 Y77.546 E326.2463
G1 X78.816 Y76.96 E326.2593
G1 X79.027 Y76.48 E326.26929
G1 X79.063 Y76.359 E326.2717
G1 X76.354 Y79.067 E326.34472
G1 X75.806 Y79.222 E326.35557
G1 X75.694 Y79.232 E326.35771
G1 X79.222 Y75.704 E326.45282
G1 X79.299 Y75.132 E326.46382
G1 X75.149 Y79.282 E326.5757
G1 X74.637 Y79.299 E326.58547
G1 X79.299 Y74.637 E326.71114
G1 X79.299 Y74.142 E326.72058
G1 X74.142 Y79.299 E326.8596
G1 X73.647 Y79.299 E326.86904
G1 X79.299 Y73.647 E327.02141
G1 X79.299 Y73.153 E327.03082
G1 X73.152 Y79.299 E327.19652
G1 X72.657 Y79.299 E327.20596
G1 X79.299 Y72.658 E327.385
G1 X79.299 Y72.163 E327.39443
G1 X72.162 Y79.299 E327.58682
G1 X71.667 Y79.299 E327.59625
G1 X79.299 Y71.668 E327.80199
G1 X79.299 Y71.173 E327.81142
G1 X71.172 Y79.299 E328.0305
G1 X70.677 Y79.299 E328.03993
G1 X79.299 Y70.678 E328.27235
G1 X79.299 Y70.183 E328.28179
G1 X70.182 Y79.299 E328.52755
G1 X69.687 Y79.299 E328.53698
G1 X79.299 Y69.688 E328.79609
G1 X79.299 Y69.193 E328.80553
G1 X69.192 Y79.299 E329.07798
G1 X68.697 Y79.299 E329.08741
G1 X79.299 Y68.698 E329.37321
G1 X79.299 Y68.203 E329.38265
G1 X68.202 Y79.299 E329.68179
G1 X67.707 Y79.299 E329.69122
G1 X79.299 Y67.708 E330.00371
G1 X79.299 Y67.213 E330.01314
G1 X67.212 Y79.299 E330.33897
G1 X66.717 Y79.299 E330.34841
G1 X79.299 Y66.718 E330.68758
G1 X79.299 Y66.223 E330.69701
G1 X66.222 Y79.299 E331.04953
G1 X65.727 Y79.299 E331.05897
G1 X79.299 Y65.728 E331.42483
G1 X79.299 Y65.233 E331.43426
G1 X65.232 Y79.299 E331.81347
G1 X64.737 Y79.299 E331.82291
G1 X79.299 Y64.738 E332.21545
G1 X79.299 Y64.243 E332.22489
G1 X64.242 Y79.299 E332.63078
G1 X63.747 Y79.299 E332.64022
G1 X79.299 Y63.748 E333.05946
G1 X79.299 Y63.253 E333.06889
G1 X63.252 Y79.299 E333.50148
G1 X62.757 Y79.299 E333.51091
G1 X79.299 Y62.758 E333.95684
G1 X79.299 Y62.263 E333.96627
G1 X62.262 Y79.299 E334.42555
G1 X61.767 Y79.299 E334.43498
G1 X79.299 Y61.768 E334.9076
G1 X79.299 Y61.273 E334.91703
G1 X61.272 Y79.299 E335.40299
G1 X60.777 Y79.299 E335.41243
G1 X79.299 Y60.778 E335.91173
G1 X79.299 Y60.283 E335.92117
G1 X60.282 Y79.299 E336.43381
G1 X59.787 Y79.299 E336.44325
G1 X79.299 Y59.788 E336.96924
G1 X79.299 Y59.293 E336.97868
G1 X59.293 Y79.299 E337.518
G1 X58.798 Y79.299 E337.52744
G1 X79.299 Y58.798 E338.0801
