;FLAVOR:Marlin
;TIME:1082
;Filament used: 0.283925m
;Layer height: 0.13125
;MINX:46.493
;MINY:46.493
;MINZ:0.263
;MAXX:73.875
;MAXY:73.875
;MAXZ:20.044
;Generated with Cura_SteamEngine 5.4.0
M140 S70
M105
M190 S70
M104 S235
M105
M109 S235
M82 ;absolute extrusion mode
G21;(metric values)
G90;(absolute positioning)
M82;(set extruder to absolute mode)
M107;(start with the fan off)
G28;(Home the printer)
G92 E0;(Reset the extruder to 0)
G0 Z5 E5 F500;(Move up and prime the nozzle)
G0 X-1 Z0;(Move outside the printable area)
G1 Y60 E8 F500;(Draw a priming/wiping line to the rear)
G1 X-1;(Move a little closer to the print area)
G1 Y10 E16 F500;(draw more priming/wiping)
G1 E15 F250;(Small retract)
G92 E0;(Zero the extruder)
G92 E0
G92 E0
G1 F2400 E-1
;LAYER_COUNT:152
;LAYER:0
M107
G0 F4320 X47.745 Y47.539 Z0.263
;TYPE:SKIRT
G1 F2400 E0
G1 F1800 X48.136 Y47.221 E0.01929
G1 X48.766 Y46.859 E0.04709
G1 X49.289 Y46.663 E0.06847
G1 X49.942 Y46.531 E0.09396
G1 X50.705 Y46.494 E0.1232
G1 X69.346 Y46.493 E0.83659
G1 X70.045 Y46.503 E0.86334
G1 X70.715 Y46.573 E0.88912
G1 X71.304 Y46.734 E0.91249
G1 X71.815 Y46.962 E0.93391
G1 X72.332 Y47.293 E0.9574
G1 X72.752 Y47.663 E0.97882
G1 X73.211 Y48.227 E1.00665
G1 X73.511 Y48.763 E1.03016
G1 X73.722 Y49.337 E1.05356
G1 X73.825 Y49.83 E1.07283
G1 X73.874 Y50.623 E1.10324
G1 X73.875 Y69.312 E1.81847
G1 X73.864 Y70.094 E1.8484
G1 X73.818 Y70.596 E1.86769
G1 X73.637 Y71.3 E1.89551
G1 X73.41 Y71.811 E1.91691
G1 X73.08 Y72.327 E1.94035
G1 X72.63 Y72.826 E1.96606
G1 X72.194 Y73.177 E1.98748
G1 X71.615 Y73.508 E2.01301
G1 X71.094 Y73.704 E2.03431
G1 X70.548 Y73.823 E2.05569
G1 X69.759 Y73.874 E2.08595
G1 X51.024 Y73.875 E2.80294
G1 X50.326 Y73.866 E2.82965
G1 X49.661 Y73.797 E2.85524
G1 X49.173 Y73.672 E2.87452
G1 X48.507 Y73.384 E2.90229
G1 X48.083 Y73.112 E2.92157
G1 X47.539 Y72.628 E2.94943
G1 X47.159 Y72.147 E2.97289
G1 X46.859 Y71.614 E2.9963
G1 X46.678 Y71.144 E3.01557
G1 X46.528 Y70.431 E3.04346
G1 X46.493 Y69.634 E3.07399
G1 X46.494 Y50.997 E3.78722
G1 X46.504 Y50.323 E3.81302
G1 X46.575 Y49.655 E3.83873
G1 X46.736 Y49.064 E3.86217
G1 X46.937 Y48.602 E3.88145
G1 X47.287 Y48.059 E3.90618
G0 F1620 X47.331 Y47.991
G0 X47.745 Y47.539
G0 F4320 X47.966 Y47.811
G1 F1800 X48.357 Y47.493 E3.92546
G1 X48.889 Y47.187 E3.94895
G1 X49.412 Y46.991 E3.97033
G1 X49.959 Y46.881 E3.99168
G1 X50.705 Y46.844 E4.02026
G1 X69.341 Y46.843 E4.73346
G1 X70.04 Y46.853 E4.76021
G1 X70.625 Y46.911 E4.78271
G1 X71.164 Y47.055 E4.80406
G1 X71.626 Y47.257 E4.82336
G1 X72.143 Y47.588 E4.84685
G1 X72.519 Y47.924 E4.86615
G1 X72.907 Y48.4 E4.88965
G1 X73.183 Y48.886 E4.91104
G1 X73.379 Y49.409 E4.93242
G1 X73.482 Y49.902 E4.95169
G1 X73.524 Y50.623 E4.97933
G1 X73.525 Y69.307 E5.69437
G1 X73.515 Y70.062 E5.72326
G1 X73.469 Y70.564 E5.74255
G1 X73.316 Y71.16 E5.7661
G1 X73.115 Y71.622 E5.78538
G1 X72.785 Y72.138 E5.80882
G1 X72.411 Y72.553 E5.8302
G1 X71.975 Y72.904 E5.85163
G1 X71.489 Y73.181 E5.87303
G1 X71.019 Y73.362 E5.89231
G1 X70.473 Y73.481 E5.91369
G1 X69.759 Y73.524 E5.94107
G1 X51.029 Y73.525 E6.65786
G1 X50.331 Y73.516 E6.68458
G1 X49.748 Y73.458 E6.707
G1 X49.26 Y73.333 E6.72628
G1 X48.696 Y73.089 E6.7498
G1 X48.272 Y72.817 E6.76907
G1 X47.812 Y72.409 E6.79261
G1 X47.463 Y71.973 E6.81398
G1 X47.186 Y71.488 E6.83535
G1 X47.005 Y71.018 E6.85463
G1 X46.878 Y70.415 E6.87821
G1 X46.843 Y69.634 E6.90813
G1 X46.844 Y51.002 E7.62118
G1 X46.854 Y50.328 E7.64697
G1 X46.913 Y49.745 E7.6694
G1 X47.057 Y49.204 E7.69082
G1 X47.258 Y48.742 E7.7101
G1 X47.518 Y48.338 E7.72849
G0 F1620 X47.59 Y48.226
G0 X47.966 Y47.811
G0 F4320 X48.187 Y48.083
G1 F1800 X48.578 Y47.765 E7.74778
G1 X49.014 Y47.514 E7.76703
G1 X49.484 Y47.334 E7.78629
G1 X49.977 Y47.231 E7.80557
G1 X50.705 Y47.194 E7.83346
G1 X69.336 Y47.193 E8.54647
G1 X70.035 Y47.203 E8.57322
G1 X70.537 Y47.25 E8.59252
G1 X71.024 Y47.376 E8.61177
G1 X71.486 Y47.578 E8.63107
G1 X71.91 Y47.849 E8.65032
G1 X72.286 Y48.185 E8.66962
G1 X72.604 Y48.575 E8.68888
G1 X72.856 Y49.011 E8.70815
G1 X73.036 Y49.481 E8.72741
G1 X73.139 Y49.974 E8.74669
G1 X73.174 Y50.623 E8.77156
G1 X73.175 Y69.303 E9.48644
G1 X73.166 Y70.03 E9.51427
G1 X73.12 Y70.532 E9.53356
G1 X72.995 Y71.02 E9.55284
G1 X72.794 Y71.482 E9.57212
G1 X72.523 Y71.906 E9.59138
G1 X72.189 Y72.282 E9.61062
G1 X71.799 Y72.601 E9.62991
G1 X71.363 Y72.854 E9.6492
G1 X70.893 Y73.035 E9.66847
G1 X70.401 Y73.139 E9.68772
G1 X69.759 Y73.174 E9.71232
G1 X51.034 Y73.175 E10.42893
G1 X50.336 Y73.166 E10.45564
G1 X49.835 Y73.119 E10.4749
G1 X49.347 Y72.994 E10.49418
G1 X48.885 Y72.794 E10.51345
G1 X48.461 Y72.522 E10.53272
G1 X48.084 Y72.188 E10.552
G1 X47.766 Y71.797 E10.57129
G1 X47.513 Y71.362 E10.59055
G1 X47.332 Y70.892 E10.60982
G1 X47.228 Y70.399 E10.6291
G1 X47.193 Y69.634 E10.65841
G1 X47.194 Y51.007 E11.37126
G1 X47.204 Y50.333 E11.39706
G1 X47.252 Y49.832 E11.41632
G1 X47.378 Y49.344 E11.43561
G1 X47.579 Y48.882 E11.45489
G1 X47.749 Y48.619 E11.46688
G0 F1620 X47.851 Y48.459
G0 X48.187 Y48.083
G1 F2400 E10.46688
;MESH:four_square_cons.stl
G0 F4320 X50.757 Y49.704
G0 X50.758 Y50.758
G0 X68.978 Y51.39
G0 X69.125 Y69.125
;TYPE:WALL-INNER
G1 F2400 E11.46688
G1 F1800 X69.125 Y51.243 E12.15122
G1 X51.244 Y51.244 E12.83552
G1 X51.243 Y69.125 E13.51983
G1 X68.431 Y69.125 E14.17761
G0 F1620 X69.125 Y69.125
G0 F4320 X69.475 Y69.475
G1 F1800 X69.475 Y50.893 E14.88874
G1 X50.894 Y50.894 E15.59984
G1 X50.893 Y69.475 E16.31093
G1 X68.781 Y69.475 E16.9955
G0 F1620 X69.475 Y69.475
G0 F4320 X69.8 Y69.8
;TYPE:WALL-OUTER
G1 F1800 X69.8 Y50.568 E17.73151
G1 X50.569 Y50.569 E18.46748
G1 X50.568 Y69.8 E19.20345
G1 X69.106 Y69.8 E19.9129
G0 F1620 X69.8 Y69.8
G0 F4320 X69.8 Y69.6
G0 X69.155 Y69.155
G0 X68.793 Y68.793
;TYPE:SKIN
G1 F1200 X51.575 Y68.793 E20.57183
G1 X51.576 Y51.576 E21.23072
G1 X68.793 Y51.575 E21.88962
G1 X68.793 Y68.099 E22.52199
G0 F1080 X68.793 Y68.793
G0 F4320 X69.05 Y68.793
G0 X69.05 Y52.283
G0 X68.617 Y52.283
G1 F1200 X68.084 Y51.75 E22.55084
G0 F4320 X67.589 Y51.75
G1 F1200 X68.617 Y52.778 E22.60647
G0 F4320 X68.617 Y53.273
G1 F1200 X67.094 Y51.75 E22.6889
G0 F4320 X66.599 Y51.75
G1 F1200 X68.617 Y53.768 E22.79812
G0 F4320 X68.617 Y54.263
G1 F1200 X66.104 Y51.75 E22.93413
G0 F4320 X65.609 Y51.75
G1 F1200 X68.617 Y54.758 E23.09693
G0 F4320 X68.617 Y55.253
G1 F1200 X65.114 Y51.75 E23.28652
G0 F4320 X64.619 Y51.75
G1 F1200 X68.617 Y55.748 E23.5029
G0 F4320 X68.617 Y56.243
G1 F1200 X64.124 Y51.75 E23.74607
G0 F4320 X63.629 Y51.75
G1 F1200 X68.617 Y56.738 E24.01602
G0 F4320 X68.617 Y57.233
G1 F1200 X63.134 Y51.75 E24.31278
G0 F4320 X62.639 Y51.75
G1 F1200 X68.617 Y57.728 E24.63632
G0 F4320 X68.617 Y58.223
G1 F1200 X62.144 Y51.75 E24.98665
G0 F4320 X61.649 Y51.75
G1 F1200 X68.617 Y58.718 E25.36377
G0 F4320 X68.617 Y59.213
G1 F1200 X61.154 Y51.75 E25.76768
G0 F4320 X60.659 Y51.75
G1 F1200 X68.617 Y59.708 E26.19838
G0 F4320 X68.617 Y60.203
G1 F1200 X60.164 Y51.75 E26.65587
G0 F4320 X59.669 Y51.75
G1 F1200 X68.617 Y60.698 E27.14016
G0 F4320 X68.617 Y61.193
G1 F1200 X59.174 Y51.75 E27.65123
G0 F4320 X58.679 Y51.75
G1 F1200 X68.617 Y61.687 E28.18906
G0 F4320 X68.617 Y62.182
G1 F1200 X58.184 Y51.75 E28.75369
G0 F4320 X57.69 Y51.75
G1 F1200 X68.617 Y62.677 E29.34508
G0 F4320 X68.617 Y63.172
G1 F1200 X57.195 Y51.75 E29.96326
G0 F4320 X56.7 Y51.75
G1 F1200 X68.617 Y63.667 E30.60823
G0 F4320 X68.617 Y64.162
G1 F1200 X56.205 Y51.75 E31.27999
G0 F4320 X55.71 Y51.75
G1 F1200 X68.617 Y64.657 E31.97854
G0 F4320 X68.617 Y65.152
G1 F1200 X55.215 Y51.75 E32.70388
G0 F4320 X54.72 Y51.75
G1 F1200 X68.617 Y65.647 E33.45602
G0 F4320 X68.617 Y66.142
G1 F1200 X54.225 Y51.75 E34.23494
G0 F4320 X53.73 Y51.75
G1 F1200 X68.617 Y66.637 E35.04065
G0 F4320 X68.617 Y67.132
G1 F1200 X53.235 Y51.75 E35.87315
G0 F4320 X52.74 Y51.75
G1 F1200 X68.617 Y67.627 E36.73245
G0 F4320 X68.617 Y68.122
G1 F1200 X52.245 Y51.75 E37.61853
G0 F4320 X51.75 Y51.75
G1 F1200 X68.617 Y68.617 E38.5314
G0 F4320 X68.122 Y68.617
G1 F1200 X51.75 Y52.245 E39.41749
G0 F4320 X51.75 Y52.74
G1 F1200 X67.627 Y68.617 E40.27678
G0 F4320 X67.132 Y68.617
G1 F1200 X51.75 Y53.235 E41.10928
G0 F4320 X51.75 Y53.73
G1 F1200 X66.637 Y68.617 E41.91499
G0 F4320 X66.142 Y68.617
G1 F1200 X51.75 Y54.225 E42.69392
G0 F4320 X51.75 Y54.72
G1 F1200 X65.647 Y68.617 E43.44605
G0 F4320 X65.152 Y68.617
G1 F1200 X51.75 Y55.215 E44.17139
G0 F4320 X51.75 Y55.71
G1 F1200 X64.657 Y68.617 E44.86994
G0 F4320 X64.162 Y68.617
G1 F1200 X51.75 Y56.205 E45.5417
G0 F4320 X51.75 Y56.7
G1 F1200 X63.667 Y68.617 E46.18667
G0 F4320 X63.172 Y68.617
G1 F1200 X51.75 Y57.195 E46.80485
G0 F4320 X51.75 Y57.69
G1 F1200 X62.677 Y68.617 E47.39624
G0 F4320 X62.182 Y68.617
G1 F1200 X51.75 Y58.184 E47.96087
G0 F4320 X51.75 Y58.679
G1 F1200 X61.687 Y68.617 E48.4987
G0 F4320 X61.193 Y68.617
G1 F1200 X51.75 Y59.174 E49.00978
G0 F4320 X51.75 Y59.669
G1 F1200 X60.698 Y68.617 E49.49406
G0 F4320 X60.203 Y68.617
G1 F1200 X51.75 Y60.164 E49.95155
G0 F4320 X51.75 Y60.659
G1 F1200 X59.708 Y68.617 E50.38225
G0 F4320 X59.213 Y68.617
G1 F1200 X51.75 Y61.154 E50.78616
G0 F4320 X51.75 Y61.649
G1 F1200 X58.718 Y68.617 E51.16329
G0 F4320 X58.223 Y68.617
G1 F1200 X51.75 Y62.144 E51.51362
G0 F4320 X51.75 Y62.639
G1 F1200 X57.728 Y68.617 E51.83716
G0 F4320 X57.233 Y68.617
G1 F1200 X51.75 Y63.134 E52.13391
G0 F4320 X51.75 Y63.629
G1 F1200 X56.738 Y68.617 E52.40387
G0 F4320 X56.243 Y68.617
G1 F1200 X51.75 Y64.124 E52.64704
G0 F4320 X51.75 Y64.619
G1 F1200 X55.748 Y68.617 E52.86342
G0 F4320 X55.253 Y68.617
M104 S230
G1 F1200 X51.75 Y65.114 E53.053
G0 F4320 X51.75 Y65.609
G1 F1200 X54.758 Y68.617 E53.2158
G0 F4320 X54.263 Y68.617
G1 F1200 X51.75 Y66.104 E53.35181
G0 F4320 X51.75 Y66.599
G1 F1200 X53.768 Y68.617 E53.46103
G0 F4320 X53.273 Y68.617
G1 F1200 X51.75 Y67.094 E53.54346
G0 F4320 X51.75 Y67.589
G1 F1200 X52.778 Y68.617 E53.59909
G0 F4320 X52.283 Y68.617
G1 F1200 X51.75 Y68.084 E53.62794
G1 X51.688 Y68.022
G1 F2400 E52.62794
;MESH:NONMESH
G0 F90 X51.688 Y68.022 Z0.394
G0 F4320 X51.319 Y68.021
G0 X50.758 Y50.758
G0 X50.757 Y49.704
G0 X48.187 Y48.083
;TIME_ELAPSED:92.812312
;LAYER:1
;TYPE:SKIRT
G1 F2400 E53.62794
G1 F1800 X48.578 Y47.765 E53.63755
G1 X49.014 Y47.514 E53.64714
G1 X49.484 Y47.334 E53.65673
G1 X49.977 Y47.231 E53.66633
G1 X50.705 Y47.194 E53.68023
G1 X69.336 Y47.193 E54.03538
G1 X70.035 Y47.203 E54.0487
G1 X70.537 Y47.25 E54.05831
G1 X71.024 Y47.376 E54.0679
G1 X71.486 Y47.578 E54.07751
G1 X71.91 Y47.849 E54.08711
G1 X72.286 Y48.185 E54.09672
G1 X72.604 Y48.575 E54.10631
G1 X72.856 Y49.011 E54.11591
G1 X73.036 Y49.481 E54.1255
G1 X73.139 Y49.974 E54.1351
G1 X73.174 Y50.623 E54.14749
G1 X73.175 Y69.303 E54.50358
G1 X73.166 Y70.03 E54.51744
G1 X73.12 Y70.532 E54.52704
G1 X72.995 Y71.02 E54.53665
G1 X72.794 Y71.482 E54.54625
G1 X72.523 Y71.906 E54.55584
G1 X72.189 Y72.282 E54.56543
G1 X71.799 Y72.601 E54.57504
G1 X71.363 Y72.854 E54.58464
G1 X70.893 Y73.035 E54.59424
G1 X70.401 Y73.139 E54.60383
G1 X69.759 Y73.174 E54.61609
G1 X51.034 Y73.175 E54.97303
G1 X50.336 Y73.166 E54.98633
G1 X49.835 Y73.119 E54.99593
G1 X49.347 Y72.994 E55.00553
G1 X48.885 Y72.794 E55.01512
G1 X48.461 Y72.522 E55.02473
G1 X48.084 Y72.188 E55.03433
G1 X47.766 Y71.797 E55.04394
G1 X47.513 Y71.362 E55.05353
G1 X47.332 Y70.892 E55.06313
G1 X47.228 Y70.399 E55.07273
G1 X47.193 Y69.634 E55.08733
G1 X47.194 Y51.007 E55.4424
G1 X47.204 Y50.333 E55.45525
G1 X47.252 Y49.832 E55.46485
G1 X47.378 Y49.344 E55.47445
G1 X47.424 Y49.238 E55.47666
G0 F1620 X47.579 Y48.882
G0 X47.851 Y48.459
G0 X48.187 Y48.083
G1 F2400 E54.47666
;MESH:four_square_cons.stl
G0 F5760 X50.56 Y49.507
G0 X50.561 Y50.561
G0 X68.978 Y51.194
G0 X69.125 Y69.125
;TYPE:WALL-INNER
G1 F2400 E55.47666
G1 X69.125 Y51.047 E55.82126
G1 X51.047 Y51.047 E56.16587
G1 X51.047 Y69.125 E56.51048
G1 X67.731 Y69.125 E56.82851
G0 F2160 X69.125 Y69.125
G0 F5760 X69.475 Y69.475
G1 F2400 X69.475 Y50.697 E57.18646
G1 X50.697 Y50.697 E57.54441
G1 X50.697 Y69.475 E57.90236
G1 X68.081 Y69.475 E58.23374
G0 F2160 X69.475 Y69.475
G0 F5760 X69.8 Y69.8
;TYPE:WALL-OUTER
G1 F2025 X69.8 Y50.372 E58.60408
G1 X50.372 Y50.372 E58.97442
G1 X50.372 Y69.8 E59.34476
G1 X68.406 Y69.8 E59.68853
G0 F1822.5 X69.8 Y69.8
G0 F5760 X69.8 Y69.6
G0 X69.155 Y69.155
G0 X68.793 Y68.793
;TYPE:SKIN
G1 F1200 X51.379 Y68.793 E60.02048
G1 X51.379 Y51.379 E60.35243
G1 X68.793 Y51.379 E60.68438
G1 X68.793 Y67.399 E60.98975
G0 F1080 X68.793 Y68.793
G0 F5760 X68.49 Y68.617
G1 F1200 X68.617 Y68.49 E60.99318
G0 F5760 X68.617 Y67.995
G1 F1200 X67.995 Y68.617 E61.00995
G0 F5760 X67.5 Y68.617
G1 F1200 X68.617 Y67.5 E61.04006
G0 F5760 X68.617 Y67.005
G1 F1200 X67.005 Y68.617 E61.08351
G0 F5760 X66.51 Y68.617
G1 F1200 X68.617 Y66.51 E61.14031
G0 F5760 X68.617 Y66.015
G1 F1200 X66.015 Y68.617 E61.21046
G0 F5760 X65.52 Y68.617
G1 F1200 X68.617 Y65.52 E61.29395
G0 F5760 X68.617 Y65.025
G1 F1200 X65.025 Y68.617 E61.39078
G0 F5760 X64.53 Y68.617
G1 F1200 X68.617 Y64.53 E61.50096
G0 F5760 X68.617 Y64.035
G1 F1200 X64.035 Y68.617 E61.62448
G0 F5760 X63.54 Y68.617
G1 F1200 X68.617 Y63.54 E61.76135
G0 F5760 X68.617 Y63.045
G1 F1200 X63.045 Y68.617 E61.91156
G0 F5760 X62.55 Y68.617
G1 F1200 X68.617 Y62.55 E62.07511
G0 F5760 X68.617 Y62.055
G1 F1200 X62.055 Y68.617 E62.25201
G0 F5760 X61.56 Y68.617
G1 F1200 X68.617 Y61.56 E62.44225
G0 F5760 X68.617 Y61.065
G1 F1200 X61.065 Y68.617 E62.64584
G0 F5760 X60.57 Y68.617
G1 F1200 X68.617 Y60.57 E62.86277
G0 F5760 X68.617 Y60.075
G1 F1200 X60.075 Y68.617 E63.09305
G0 F5760 X59.58 Y68.617
G1 F1200 X68.617 Y59.58 E63.33667
G0 F5760 X68.617 Y59.085
G1 F1200 X59.085 Y68.617 E63.59363
G0 F5760 X58.59 Y68.617
G1 F1200 X68.617 Y58.59 E63.86394
G0 F5760 X68.617 Y58.095
G1 F1200 X58.095 Y68.617 E64.14759
G0 F5760 X57.6 Y68.617
G1 F1200 X68.617 Y57.6 E64.44459
G0 F5760 X68.617 Y57.105
G1 F1200 X57.105 Y68.617 E64.75493
G0 F5760 X56.61 Y68.617
G1 F1200 X68.617 Y56.61 E65.07861
G0 F5760 X68.617 Y56.115
G1 F1200 X56.115 Y68.617 E65.41564
G0 F5760 X55.621 Y68.617
G1 F1200 X68.617 Y55.621 E65.76599
G0 F5760 X68.617 Y55.126
G1 F1200 X55.126 Y68.617 E66.12968
G0 F5760 X54.631 Y68.617
G1 F1200 X68.617 Y54.631 E66.50672
G0 F5760 X68.617 Y54.136
G1 F1200 X54.136 Y68.617 E66.8971
G0 F5760 X53.641 Y68.617
G1 F1200 X68.617 Y53.641 E67.30082
G0 F5760 X68.617 Y53.146
G1 F1200 X53.146 Y68.617 E67.71789
G0 F5760 X52.651 Y68.617
G1 F1200 X68.617 Y52.651 E68.1483
G0 F5760 X68.617 Y52.156
G1 F1200 X52.156 Y68.617 E68.59206
G0 F5760 X51.661 Y68.617
G1 F1200 X68.617 Y51.661 E69.04916
G0 F5760 X68.23 Y51.553
G1 F1200 X51.553 Y68.23 E69.49874
G0 F5760 X51.553 Y67.735
G1 F1200 X67.735 Y51.553 E69.93497
G0 F5760 X67.24 Y51.553
G1 F1200 X51.553 Y67.24 E70.35786
G0 F5760 X51.553 Y66.745
G1 F1200 X66.745 Y51.553 E70.76741
G0 F5760 X66.25 Y51.553
G1 F1200 X51.553 Y66.25 E71.16361
G0 F5760 X51.553 Y65.755
G1 F1200 X65.755 Y51.553 E71.54647
G0 F5760 X65.26 Y51.553
G1 F1200 X51.553 Y65.26 E71.91598
G0 F5760 X51.553 Y64.765
G1 F1200 X64.765 Y51.553 E72.27215
G0 F5760 X64.27 Y51.553
G1 F1200 X51.553 Y64.27 E72.61498
G0 F5760 X51.553 Y63.775
G1 F1200 X63.775 Y51.553 E72.94446
G0 F5760 X63.28 Y51.553
G1 F1200 X51.553 Y63.28 E73.2606
G0 F5760 X51.553 Y62.785
G1 F1200 X62.785 Y51.553 E73.56339
G0 F5760 X62.29 Y51.553
G1 F1200 X51.553 Y62.29 E73.85284
G0 F5760 X51.553 Y61.795
G1 F1200 X61.795 Y51.553 E74.12894
G0 F5760 X61.3 Y51.553
G1 F1200 X51.553 Y61.3 E74.3917
G0 F5760 X51.553 Y60.805
G1 F1200 X60.805 Y51.553 E74.64112
G0 F5760 X60.31 Y51.553
G1 F1200 X51.553 Y60.31 E74.87719
G0 F5760 X51.553 Y59.815
G1 F1200 X59.815 Y51.553 E75.09992
G0 F5760 X59.32 Y51.553
G1 F1200 X51.553 Y59.32 E75.3093
G0 F5760 X51.553 Y58.825
G1 F1200 X58.825 Y51.553 E75.50534
G0 F5760 X58.33 Y51.553
G1 F1200 X51.553 Y58.33 E75.68803
G0 F5760 X51.553 Y57.835
G1 F1200 X57.835 Y51.553 E75.85738
G0 F5760 X57.34 Y51.553
G1 F1200 X51.553 Y57.34 E76.01339
G0 F5760 X51.553 Y56.845
G1 F1200 X56.845 Y51.553 E76.15605
G0 F5760 X56.35 Y51.553
G1 F1200 X51.553 Y56.35 E76.28537
G0 F5760 X51.553 Y55.855
G1 F1200 X55.855 Y51.553 E76.40134
G0 F5760 X55.36 Y51.553
G1 F1200 X51.553 Y55.36 E76.50397
G0 F5760 X51.553 Y54.865
