;FLAVOR:Marlin
;TIME:1320
;Filament used: 0.490042m
;Layer height: 0.13125
;MINX:45.768
;MINY:45.77
;MINZ:0.306
;MAXX:74.599
;MAXY:74.6
;MAXZ:21.051
;Generated with Cura_SteamEngine 5.4.0
M140 S70
M105
M190 S70
M104 S245
M105
M109 S245
M82 ;absolute extrusion mode
G21;(metric values)
G90;(absolute positioning)
M82;(set extruder to absolute mode)
M107;(start with the fan off)
G28;(Home the printer)
G92 E0;(Reset the extruder to 0)
G0 Z5 E5 F500;(Move up and prime the nozzle)
G0 X-1 Z0;(Move outside the printable area)
G1 Y60 E8 F500;(Draw a priming/wiping line to the rear)
G1 X-1;(Move a little closer to the print area)
G1 Y10 E16 F500;(draw more priming/wiping)
G1 E15 F250;(Small retract)
G92 E0;(Zero the extruder)
G92 E0
G92 E0
G1 F3900 E-3
;LAYER_COUNT:152
;LAYER:-6
M107
G0 F7200 X46.839 Y47.417 Z0.306
;TYPE:SUPPORT-INTERFACE
G1 F3900 E0
G1 F1125 X47.359 Y46.904 E0.07434
G1 X47.819 Y46.552 E0.13329
G1 X48.311 Y46.265 E0.19127
G1 X48.851 Y46.036 E0.25096
G1 X49.524 Y45.847 E0.32211
G1 X50.39 Y45.77 E0.41059
G1 X70.043 Y45.772 E2.4108
G1 X70.845 Y45.841 E2.49272
G1 X71.704 Y46.093 E2.58383
G1 X72.343 Y46.42 E2.65689
G1 X72.832 Y46.754 E2.71716
G1 X73.262 Y47.138 E2.77583
G1 X73.739 Y47.685 E2.8497
G1 X74.18 Y48.438 E2.93851
G1 X74.418 Y49.121 E3.01212
G1 X74.544 Y49.772 E3.07961
G1 X74.599 Y50.386 E3.14235
G1 X74.596 Y70.045 E5.14316
G1 X74.542 Y70.684 E5.20843
G1 X74.405 Y71.295 E5.27216
G1 X74.163 Y71.967 E5.34485
G1 X73.788 Y72.594 E5.41921
G1 X73.345 Y73.162 E5.49252
G1 X72.686 Y73.736 E5.58147
G1 X72.061 Y74.102 E5.65518
G1 X71.524 Y74.331 E5.7146
G1 X70.848 Y74.521 E5.78606
G1 X69.98 Y74.6 E5.87477
G1 X50.323 Y74.596 E7.87538
G1 X49.527 Y74.529 E7.95668
G1 X48.797 Y74.314 E8.03413
G1 X48.261 Y74.079 E8.0937
G1 X47.775 Y73.788 E8.15135
G1 X47.318 Y73.43 E8.21043
G1 X46.905 Y73.011 E8.27031
G1 X46.556 Y72.557 E8.32859
G1 X46.264 Y72.059 E8.38735
G1 X46.035 Y71.521 E8.44686
G1 X45.847 Y70.847 E8.51807
G1 X45.768 Y69.98 E8.60668
G1 X45.773 Y50.324 E10.60719
G1 X45.839 Y49.527 E10.68858
G1 X46.093 Y48.666 E10.77994
G1 X46.429 Y48.012 E10.85478
G1 X46.691 Y47.632 E10.90175
G0 F1012.5 X46.839 Y47.417
G0 F7200 X47.412 Y47.412
G1 F1125 X72.962 Y72.962 E14.57924
G1 F3900 E11.57924
G0 F7200 X73.867 Y71.605
G1 F3900 E14.57924
G1 F1125 X48.768 Y46.505 E18.19189
G1 F3900 E15.19189
G0 F7200 X50.696 Y46.17
G1 F3900 E18.19189
G1 F1125 X74.196 Y69.67 E21.57431
G1 F3900 E18.57431
G0 F7200 X74.196 Y67.407
G1 F3900 E21.57431
G1 F1125 X52.958 Y46.17 E24.63109
G1 F3900 E21.63109
G0 F7200 X55.221 Y46.17
G1 F3900 E24.63109
G1 F1125 X74.196 Y65.145 E27.36222
G1 F3900 E24.36222
G0 F7200 X74.196 Y62.883
G1 F3900 E27.36222
G1 F1125 X57.484 Y46.171 E29.76763
G1 F3900 E26.76763
G0 F7200 X59.747 Y46.171
G1 F3900 E29.76763
G1 F1125 X74.196 Y60.62 E31.84732
G1 F3900 E28.84732
G0 F7200 X74.197 Y58.358
G1 F3900 E31.84732
G1 F1125 X62.01 Y46.171 E33.60143
G1 F3900 E30.60143
G0 F7200 X64.273 Y46.171
G1 F3900 E33.60143
G1 F1125 X74.197 Y56.095 E35.02982
G1 F3900 E32.02982
G0 F7200 X74.198 Y53.833
G1 F3900 E35.02982
G1 F1125 X66.536 Y46.171 E36.13263
G1 F3900 E33.13263
G0 F7200 X68.799 Y46.171
G1 F3900 E36.13263
G1 F1125 X74.198 Y51.57 E36.90973
G1 F3900 E33.90973
G0 F7200 X73.985 Y49.095
G1 F3900 E36.90973
G1 F1125 X71.274 Y46.384 E37.29993
G1 F3900 E34.29993
G0 F7200 X46.495 Y48.757
G1 F3900 E37.29993
G1 F1125 X71.599 Y73.862 E40.9133
G1 F3900 E37.9133
G0 F7200 X69.672 Y74.198
G1 F3900 E40.9133
G1 F1125 X46.171 Y50.697 E44.29587
G1 F3900 E41.29587
G0 F7200 X46.171 Y52.96
G1 F3900 E44.29587
G1 F1125 X67.409 Y74.198 E47.35272
G1 F3900 E44.35272
G0 F7200 X65.146 Y74.197
G1 F3900 E47.35272
G1 F1125 X46.171 Y55.222 E50.08385
G1 F3900 E47.08385
G0 F7200 X46.17 Y57.484
G1 F3900 E50.08385
G1 F1125 X62.883 Y74.197 E52.4894
G1 F3900 E49.4894
G0 F7200 X60.62 Y74.196
G1 F3900 E52.4894
G1 F1125 X46.17 Y59.746 E54.56923
G1 F3900 E51.56923
G0 F7200 X46.169 Y62.009
G1 F3900 E54.56923
G1 F1125 X58.357 Y74.196 E56.32341
G1 F3900 E53.32341
G0 F7200 X56.094 Y74.196
G1 F3900 E56.32341
G1 F1125 X46.169 Y64.271 E57.75195
G1 F3900 E54.75195
G0 F7200 X46.169 Y66.533
M104 S240
G1 F3900 E57.75195
G1 F1125 X53.83 Y74.195 E58.85469
G1 F3900 E55.85469
G0 F7200 X51.567 Y74.195
G1 F3900 E58.85469
G1 F1125 X46.168 Y68.795 E59.63186
G1 F3900 E56.63186
G0 F7200 X46.38 Y71.27
G1 F3900 E59.63186
G1 F1125 X49.092 Y73.982 E60.0222
G1 F3900 E57.0222
G0 F90 X49.092 Y73.982 Z0.525
G0 F7200 X71.424 Y74.046
;TIME_ELAPSED:63.977843
;LAYER:-5
;TYPE:SUPPORT
G1 F3900 E60.0222
G1 F1125 X71.938 Y73.826 E60.05784
G1 X72.506 Y73.495 E60.09974
G1 X73.029 Y73.039 E60.14396
G1 X73.467 Y72.547 E60.18595
G1 X73.816 Y71.96 E60.22947
G1 X74.027 Y71.48 E60.26289
G1 X74.19 Y70.907 E60.30086
G1 X70.883 Y74.215 E60.59898
G1 X69.953 Y74.299 E60.65849
G1 X69.526 Y74.299 E60.68571
G1 X74.299 Y69.526 E61.11592
G1 X74.299 Y68.253 E61.19705
G1 X68.253 Y74.299 E61.74201
G1 X66.98 Y74.299 E61.82314
G1 X74.299 Y66.98 E62.48284
G1 X74.299 Y65.707 E62.56397
G1 X65.707 Y74.299 E63.33841
G1 X64.435 Y74.299 E63.41948
G1 X74.299 Y64.435 E64.30856
G1 X74.299 Y63.162 E64.3897
G1 X63.162 Y74.299 E65.39353
G1 X61.889 Y74.299 E65.47466
G1 X74.299 Y61.889 E66.59323
G1 X74.299 Y60.616 E66.67436
G1 X60.616 Y74.299 E67.90767
G1 X59.343 Y74.299 E67.98881
G1 X74.299 Y59.343 E69.33686
G1 X74.299 Y58.071 E69.41793
G1 X58.071 Y74.299 E70.88063
G1 X56.798 Y74.299 E70.96177
G1 X74.299 Y56.798 E72.53921
G1 X74.299 Y55.525 E72.62035
G1 X55.525 Y74.299 E74.31253
G1 X54.252 Y74.299 E74.39367
G1 X74.299 Y54.252 E76.20059
G1 X74.299 Y52.979 E76.28173
G1 X52.979 Y74.299 E78.2034
G1 X51.707 Y74.299 E78.28447
G1 X74.299 Y51.707 E80.32079
G1 X74.299 Y50.434 E80.40192
G1 X50.434 Y74.299 E82.55298
G1 X50.141 Y74.299 E82.57166
G1 X49.295 Y74.165 E82.62625
G1 X74.162 Y49.298 E84.86762
G1 X73.906 Y48.564 E84.91717
G1 X73.802 Y48.385 E84.93036
G1 X48.384 Y73.803 E87.2214
G1 X47.827 Y73.471 E87.26273
G1 X47.624 Y73.29 E87.28006
G1 X73.299 Y47.615 E89.59427
G1 X72.668 Y46.973 E89.65164
G1 X46.989 Y72.652 E91.9662
G1 X46.652 Y72.148 E92.00485
G1 X46.509 Y71.859 E92.0254
G1 X71.861 Y46.508 E94.31044
G1 X71.591 Y46.369 E94.3298
G1 X70.919 Y46.177 E94.37434
G1 X46.177 Y70.919 E96.60445
G1 X46.145 Y70.807 E96.61187
G1 X46.051 Y69.772 E96.67811
G1 X69.756 Y46.068 E98.8147
G1 X68.483 Y46.068 E98.89584
G1 X46.068 Y68.482 E100.91616
G1 X46.068 Y67.209 E100.99729
G1 X67.21 Y46.068 E102.90287
G1 X65.937 Y46.068 E102.98401
G1 X46.068 Y65.937 E104.77489
G1 X46.068 Y64.664 E104.85602
G1 X64.664 Y46.068 E106.53217
G1 X63.392 Y46.068 E106.61324
G1 X46.068 Y63.391 E108.17468
G1 X46.068 Y62.118 E108.25582
G1 X62.119 Y46.068 E109.70252
G1 X60.846 Y46.068 E109.78365
G1 X46.068 Y60.845 E111.11562
G1 X46.068 Y59.573 E111.19669
G1 X59.573 Y46.068 E112.41395
G1 X58.3 Y46.068 E112.49509
G1 X46.068 Y58.3 E113.59761
G1 X46.068 Y57.027 E113.67875
G1 X57.028 Y46.068 E114.66658
G1 X55.755 Y46.068 E114.74771
G1 X46.068 Y55.754 E115.6208
G1 X46.068 Y54.481 E115.70193
G1 X54.482 Y46.068 E116.46028
G1 X53.209 Y46.068 E116.54142
G1 X46.068 Y53.209 E117.18507
G1 X46.068 Y51.936 E117.2662
G1 X51.936 Y46.068 E117.79511
G1 X50.664 Y46.068 E117.87618
G1 X46.068 Y50.663 E118.29039
G1 X46.068 Y50.134 E118.32411
G1 X46.186 Y49.406 E118.37111
G1 X46.377 Y48.765 E118.41374
G1 X46.692 Y48.153 E118.45761
G1 X46.985 Y47.729 E118.49046
G1 X47.454 Y47.202 E118.53542
G1 X47.977 Y46.804 E118.57731
G1 X48.432 Y46.54 E118.61084
G1 X48.94 Y46.322 E118.64607
G1 X49.215 Y46.244 E118.66429
G1 X46.538 Y48.921 E118.90558
G0 F1012.5 X46.244 Y49.215
G1 F3900 E115.90558
G0 F90 X46.244 Y49.215 Z0.744
G0 F7200 X46.652 Y72.148
;TIME_ELAPSED:114.094437
;LAYER:-4
;TYPE:SUPPORT
G1 F3900 E118.90558
G1 F1125 X46.953 Y72.598 E118.94008
G1 X47.323 Y73.022 E118.97595
G1 X47.827 Y73.471 E119.01897
G1 X48.291 Y73.747 E119.05338
G1 X46.613 Y72.069 E119.20463
G1 X46.355 Y71.548 E119.24168
G1 X46.145 Y70.807 E119.29077
G1 X46.096 Y70.28 E119.3245
G1 X50.111 Y74.294 E119.68635
G1 X51.388 Y74.299 E119.76774
G1 X46.068 Y68.978 E120.2473
G1 X46.068 Y67.705 E120.32843
G1 X52.661 Y74.299 E120.92273
G1 X53.934 Y74.299 E121.00387
G1 X46.068 Y66.432 E121.71291
G1 X46.068 Y65.159 E121.79404
G1 X55.207 Y74.299 E122.61783
G1 X56.48 Y74.299 E122.69896
G1 X46.068 Y63.887 E123.63744
G1 X46.068 Y62.614 E123.71858
G1 X57.752 Y74.299 E124.77176
G1 X59.025 Y74.299 E124.85289
G1 X46.068 Y61.341 E126.02081
G1 X46.068 Y60.068 E126.10194
G1 X60.298 Y74.299 E127.3846
G1 X61.571 Y74.299 E127.46574
G1 X46.068 Y58.795 E128.86314
G1 X46.068 Y57.523 E128.94421
G1 X62.844 Y74.299 E130.4563
G1 X64.116 Y74.299 E130.53737
G1 X46.068 Y56.25 E132.16417
G1 X46.068 Y54.977 E132.2453
G1 X65.389 Y74.299 E133.98684
G1 X66.662 Y74.299 E134.06797
G1 X46.068 Y53.704 E135.92425
G1 X46.068 Y52.431 E136.00538
G1 X67.935 Y74.299 E137.9764
G1 X69.208 Y74.299 E138.05753
G1 X46.068 Y51.159 E140.14324
G1 X46.068 Y50.134 E140.20857
G1 X46.102 Y49.921 E140.22232
G1 X70.437 Y74.255 E142.4157
G1 X70.806 Y74.222 E142.43931
G1 X71.483 Y74.029 E142.48418
G1 X46.323 Y48.869 E144.75196
G1 X46.756 Y48.029 E144.81219
G1 X72.327 Y73.599 E147.11698
G1 X72.506 Y73.495 E147.13017
G1 X73.034 Y73.034 E147.17485
G1 X47.335 Y47.335 E149.49121
G1 X47.454 Y47.202 E149.50259
G1 X48.033 Y46.761 E149.54898
G1 X73.599 Y72.326 E151.85331
G1 X73.816 Y71.96 E151.88043
G1 X74.027 Y71.482 E151.91373
G1 X48.884 Y46.338 E154.18003
G1 X49.57 Y46.143 E154.22548
G1 X49.93 Y46.111 E154.24852
G1 X74.264 Y70.446 E156.44189
G1 X74.299 Y70.226 E156.45609
G1 X74.299 Y69.208 E156.52097
G1 X51.159 Y46.068 E158.60669
G1 X52.432 Y46.068 E158.68782
G1 X74.299 Y67.935 E160.65879
G1 X74.299 Y66.662 E160.73993
G1 X53.705 Y46.068 E162.59616
G1 X54.978 Y46.068 E162.67729
G1 X74.299 Y65.389 E164.41878
G1 X74.299 Y64.116 E164.49992
G1 X56.251 Y46.068 E166.12666
G1 X57.523 Y46.068 E166.20773
G1 X74.299 Y62.844 E167.71983
G1 X74.299 Y61.571 E167.80097
G1 X58.796 Y46.068 E169.19832
G1 X60.069 Y46.068 E169.27946
G1 X74.299 Y60.298 E170.56207
G1 X74.299 Y59.025 E170.6432
G1 X61.342 Y46.068 E171.81108
G1 X62.615 Y46.068 E171.89221
G1 X74.299 Y57.752 E172.94534
G1 X74.299 Y56.48 E173.02641
G1 X63.887 Y46.068 E173.96489
G1 X65.16 Y46.068 E174.04603
G1 X74.299 Y55.207 E174.86977
G1 X74.299 Y53.934 E174.9509
G1 X66.433 Y46.068 E175.6599
G1 X67.706 Y46.068 E175.74104
G1 X74.299 Y52.661 E176.33529
G1 X74.299 Y51.388 E176.41643
G1 X68.978 Y46.068 E176.89599
G1 X70.257 Y46.074 E176.9775
G1 X74.27 Y50.087 E177.33921
G1 X74.239 Y49.747 E177.36097
G1 X74.133 Y49.216 E177.39549
G1 X73.906 Y48.564 E177.43949
G1 X73.561 Y47.973 E177.4831
G1 X73.246 Y47.561 E177.51616
G1 X72.758 Y47.065 E177.5605
G1 X72.187 Y46.676 E177.60454
G1 X72.073 Y46.618 E177.61269
G1 X73.452 Y47.997 E177.73699
G0 F1012.5 X73.746 Y48.291
G1 F3900 E174.73699
G0 F90 X73.746 Y48.291 Z0.875
G0 F7200 X73.444 Y72.573
;TIME_ELAPSED:164.125265
;LAYER:-3
;TYPE:SUPPORT-INTERFACE
G1 F3900 E177.73699
G1 F1500 X72.628 Y73.389 E177.75898
G1 X73.029 Y73.039 E177.76913
G1 X73.467 Y72.547 E177.78169
G1 X73.816 Y71.96 E177.79471
G1 X74.016 Y71.506 E177.80416
G1 X71.497 Y74.025 E177.87207
G1 X70.804 Y74.222 E177.8858
G1 X74.203 Y70.823 E177.97743
G1 X74.297 Y70.234 E177.9888
G1 X70.26 Y74.271 E178.09763
G1 X69.738 Y74.299 E178.1076
G1 X74.299 Y69.738 E178.23055
G1 X74.299 Y69.243 E178.23999
G1 X69.243 Y74.299 E178.37629
G1 X68.748 Y74.299 E178.38572
G1 X74.299 Y68.748 E178.53537
G1 X74.299 Y68.253 E178.5448
G1 X68.253 Y74.299 E178.70779
G1 X67.758 Y74.299 E178.71723
G1 X74.299 Y67.758 E178.89356
G1 X74.299 Y67.263 E178.903
G1 X67.263 Y74.299 E179.09267
G1 X66.768 Y74.299 E179.10211
G1 X74.299 Y66.768 E179.30513
G1 X74.299 Y66.273 E179.31457
G1 X66.273 Y74.299 E179.53093
G1 X65.778 Y74.299 E179.54037
G1 X74.299 Y65.778 E179.77008
G1 X74.299 Y65.283 E179.77951
G1 X65.283 Y74.299 E180.02257
G1 X64.788 Y74.299 E180.032
G1 X74.299 Y64.788 E180.2884
G1 X74.299 Y64.293 E180.29784
G1 X64.293 Y74.299 E180.56758
G1 X63.798 Y74.299 E180.57701
G1 X74.299 Y63.798 E180.8601
G1 X74.299 Y63.303 E180.86954
G1 X63.303 Y74.299 E181.16597
G1 X62.808 Y74.299 E181.1754
G1 X74.299 Y62.808 E181.48518
G1 X74.299 Y62.313 E181.49461
G1 X62.313 Y74.299 E181.81773
G1 X61.818 Y74.299 E181.82717
G1 X74.299 Y61.818 E182.16363
G1 X74.299 Y61.323 E182.17307
G1 X61.323 Y74.299 E182.52287
G1 X60.828 Y74.299 E182.53231
G1 X74.299 Y60.828 E182.89546
G1 X74.299 Y60.333 E182.9049
G1 X60.333 Y74.299 E183.28139
G1 X59.838 Y74.299 E183.29083
G1 X74.299 Y59.838 E183.68067
G1 X74.299 Y59.343 E183.69011
G1 X59.343 Y74.299 E184.09329
G1 X58.848 Y74.299 E184.10273
G1 X74.299 Y58.848 E184.51925
G1 X74.299 Y58.353 E184.52869
G1 X58.353 Y74.299 E184.95856
G1 X57.859 Y74.299 E184.96798
G1 X74.299 Y57.859 E185.41117
G1 X74.299 Y57.364 E185.42061
G1 X57.364 Y74.299 E185.87714
G1 X56.869 Y74.299 E185.88658
G1 X74.299 Y56.869 E186.35646
G1 X74.299 Y56.374 E186.36589
G1 X56.374 Y74.299 E186.84911
G1 X55.879 Y74.299 E186.85855
G1 X74.299 Y55.879 E187.35512
G1 X74.299 Y55.384 E187.36455
G1 X55.384 Y74.299 E187.87446
G1 X54.889 Y74.299 E187.8839
G1 X74.299 Y54.889 E188.40716
G1 X74.299 Y54.394 E188.41659
G1 X54.394 Y74.299 E188.95319
G1 X53.899 Y74.299 E188.96263
G1 X74.299 Y53.899 E189.51257
G1 X74.299 Y53.404 E189.52201
G1 X53.404 Y74.299 E190.0853
G1 X52.909 Y74.299 E190.09473
G1 X74.299 Y52.909 E190.67136
G1 X74.299 Y52.414 E190.6808
G1 X52.414 Y74.299 E191.27078
G1 X51.919 Y74.299 E191.28021
G1 X74.299 Y51.919 E191.88353
G1 X74.299 Y51.424 E191.89297
G1 X51.424 Y74.299 E192.50963
G1 X50.929 Y74.299 E192.51907
G1 X74.299 Y50.929 E193.14908
G1 X74.299 Y50.434 E193.15851
G1 X50.434 Y74.299 E193.80187
G1 X49.966 Y74.271 E193.81081
G1 X74.26 Y49.978 E194.46571
G1 X74.198 Y49.544 E194.47407
G1 X49.539 Y74.203 E195.13883
G1 X49.145 Y74.103 E195.14657
G1 X74.106 Y49.141 E195.81949
G1 X73.979 Y48.774 E195.82689
G1 X48.774 Y73.978 E196.50636
G1 X48.431 Y73.827 E196.5135
G1 X73.828 Y48.43 E197.19815
G1 X73.645 Y48.118 E197.20505
G1 X48.118 Y73.645 E197.89321
G1 X47.811 Y73.457 E197.90007
G1 X73.445 Y47.823 E198.59111
G1 X73.229 Y47.544 E198.59784
G1 X47.549 Y73.224 E199.29012
G1 X47.292 Y72.986 E199.2968
G1 X72.984 Y47.294 E199.9894
G1 X72.735 Y47.048 E199.99607
G1 X47.061 Y72.722 E200.68819
G1 X46.848 Y72.44 E200.69493
G1 X72.44 Y46.847 E201.38485
G1 X72.141 Y46.652 E201.39166
G1 X46.65 Y72.143 E202.07885
G1 X46.486 Y71.812 E202.08589
G1 X71.814 Y46.484 E202.76868
G1 X71.469 Y46.334 E202.77585
G1 X46.333 Y71.47 E203.45347
G1 X46.224 Y71.084 E203.46112
G1 X71.085 Y46.223 E204.13132
G1 X70.675 Y46.138 E204.1393
G1 X46.133 Y70.68 E204.80091
G1 X46.092 Y70.226 E204.8096
G1 X70.247 Y46.071 E205.46077
G1 X69.756 Y46.068 E205.47013
G1 X46.068 Y69.755 E206.1087
G1 X46.068 Y69.26 E206.11813
G1 X69.261 Y46.068 E206.74336
G1 X68.766 Y46.068 E206.75279
G1 X46.068 Y68.765 E207.36467
G1 X46.068 Y68.27 E207.37411
G1 X68.271 Y46.068 E207.97264
G1 X67.776 Y46.068 E207.98208
G1 X46.068 Y67.775 E208.56727
G1 X46.068 Y67.28 E208.57671
G1 X67.281 Y46.068 E209.14855
G1 X66.786 Y46.068 E209.15799
G1 X46.068 Y66.785 E209.71649
G1 X46.068 Y66.29 E209.72593
G1 X66.291 Y46.068 E210.27109
G1 X65.796 Y46.068 E210.28052
G1 X46.068 Y65.795 E210.81234
G1 X46.068 Y65.3 E210.82177
G1 X65.301 Y46.068 E211.34024
G1 X64.806 Y46.068 E211.34968
G1 X46.068 Y64.805 E211.85481
G1 X46.068 Y64.31 E211.86424
G1 X64.311 Y46.068 E212.35602
G1 X63.816 Y46.068 E212.36546
G1 X46.068 Y63.815 E212.8439
G1 X46.068 Y63.32 E212.85333
G1 X63.321 Y46.068 E213.31843
G1 X62.826 Y46.068 E213.32786
G1 X46.068 Y62.825 E213.77961
G1 X46.068 Y62.33 E213.78905
G1 X62.331 Y46.068 E214.22745
G1 X61.836 Y46.068 E214.23689
G1 X46.068 Y61.835 E214.66195
G1 X46.068 Y61.34 E214.67139
G1 X61.341 Y46.068 E215.0831
G1 X60.846 Y46.068 E215.09254
G1 X46.068 Y60.845 E215.49091
G1 X46.068 Y60.35 E215.50035
G1 X60.351 Y46.068 E215.88538
G1 X59.856 Y46.068 E215.89481
G1 X46.068 Y59.855 E216.2665
G1 X46.068 Y59.36 E216.27593
G1 X59.361 Y46.068 E216.63427
G1 X58.866 Y46.068 E216.64371
G1 X46.068 Y58.865 E216.9887
G1 X46.068 Y58.37 E216.99814
G1 X58.371 Y46.068 E217.32979
G1 X57.876 Y46.068 E217.33923
