;FLAVOR:Marlin
;TIME:1112
;Filament used: 0.322877m
;Layer height: 0.13125
;MINX:45.294
;MINY:45.293
;MINZ:0.263
;MAXX:75.075
;MAXY:75.075
;MAXZ:20.044
;Generated with Cura_SteamEngine 5.4.0
M140 S80
M105
M190 S80
M104 S245
M105
M109 S245
M82 ;absolute extrusion mode
G21;(metric values)
G90;(absolute positioning)
M82;(set extruder to absolute mode)
M107;(start with the fan off)
G28;(Home the printer)
G92 E0;(Reset the extruder to 0)
G0 Z5 E5 F500;(Move up and prime the nozzle)
G0 X-1 Z0;(Move outside the printable area)
G1 Y60 E8 F500;(Draw a priming/wiping line to the rear)
G1 X-1;(Move a little closer to the print area)
G1 Y10 E16 F500;(draw more priming/wiping)
G1 E15 F250;(Small retract)
G92 E0;(Zero the extruder)
G92 E0
G92 E0
G1 F2400 E-1
;LAYER_COUNT:152
;LAYER:0
M107
G0 F4320 X46.385 Y47.137 Z0.263
;TYPE:SKIRT
G1 F2400 E0
G1 F1800 X47.697 Y46.045 E0.06533
G1 X49.074 Y45.44 E0.12289
G1 X50.228 Y45.303 E0.16736
G1 X70 Y45.293 E0.92403
G1 X71.573 Y45.508 E0.98479
G1 X73.224 Y46.375 E1.05616
G1 X74.323 Y47.694 E1.12186
G1 X74.929 Y49.073 E1.17951
G1 X75.066 Y50.227 E1.22398
G1 X75.075 Y70.521 E2.00063
G1 X74.764 Y71.77 E2.04989
G1 X73.984 Y73.232 E2.1133
G1 X72.672 Y74.324 E2.17863
G1 X71.295 Y74.929 E2.23619
G1 X70.141 Y75.066 E2.28066
G1 X49.847 Y75.075 E3.05731
G1 X48.598 Y74.764 E3.10657
G1 X47.136 Y73.984 E3.16999
G1 X46.044 Y72.672 E3.23531
G1 X45.439 Y71.295 E3.29287
G1 X45.302 Y70.141 E3.33735
G1 X45.294 Y49.848 E4.11396
G1 X45.605 Y48.599 E4.16322
G1 X46.059 Y47.749 E4.2001
G0 F1620 X46.385 Y47.137
G0 F4320 X46.662 Y47.362
G1 F1800 X47.884 Y46.345 E4.26094
G1 X49.167 Y45.781 E4.31458
G1 X50.228 Y45.653 E4.35547
G1 X70 Y45.643 E5.11215
G1 X71.465 Y45.847 E5.16875
G1 X73 Y46.653 E5.2351
G1 X74.023 Y47.881 E5.29627
G1 X74.588 Y49.166 E5.34999
G1 X74.716 Y50.227 E5.39089
G1 X74.725 Y70.477 E6.16586
G1 X74.435 Y71.643 E6.21184
G1 X73.707 Y73.007 E6.27101
G1 X72.485 Y74.024 E6.33185
G1 X71.202 Y74.588 E6.38549
G1 X70.141 Y74.716 E6.42639
G1 X49.891 Y74.725 E7.20135
G1 X48.725 Y74.435 E7.24733
G1 X47.361 Y73.707 E7.3065
G1 X46.344 Y72.485 E7.36735
G1 X45.78 Y71.202 E7.42098
G1 X45.652 Y70.141 E7.46188
G1 X45.644 Y49.892 E8.23681
G1 X45.934 Y48.726 E8.28279
G1 X46.336 Y47.974 E8.31542
G0 F1620 X46.662 Y47.362
G0 F4320 X46.939 Y47.587
G1 F1800 X48.071 Y46.645 E8.37178
G1 X49.26 Y46.122 E8.42149
G1 X50.228 Y46.003 E8.45882
G1 X70 Y45.993 E9.21549
G1 X71.357 Y46.186 E9.26795
G1 X72.776 Y46.931 E9.32928
G1 X73.723 Y48.068 E9.38591
G1 X74.247 Y49.259 E9.43571
G1 X74.366 Y50.227 E9.47303
G1 X74.375 Y70.432 E10.24627
G1 X74.105 Y71.517 E10.28906
G1 X73.43 Y72.782 E10.34394
G1 X72.298 Y73.724 E10.4003
G1 X71.109 Y74.247 E10.45001
G1 X70.141 Y74.366 E10.48733
G1 X49.936 Y74.375 E11.26057
G1 X48.851 Y74.105 E11.30336
G1 X47.586 Y73.43 E11.35824
G1 X46.644 Y72.298 E11.41459
G1 X46.121 Y71.109 E11.46431
G1 X46.002 Y70.141 E11.50163
G1 X45.994 Y49.937 E12.27484
G1 X46.264 Y48.852 E12.31762
G1 X46.613 Y48.199 E12.34596
G0 F1620 X46.939 Y47.587
G0 F4320 X47.216 Y47.812
G1 F1800 X48.258 Y46.945 E12.39784
G1 X49.353 Y46.463 E12.44362
G1 X50.228 Y46.353 E12.47737
G1 X70 Y46.343 E13.23405
G1 X71.246 Y46.523 E13.28222
G1 X72.552 Y47.209 E13.33868
G1 X73.423 Y48.255 E13.39077
G1 X73.906 Y49.352 E13.43664
G1 X74.016 Y50.227 E13.47039
G1 X74.025 Y70.387 E14.24192
G1 X73.775 Y71.391 E14.28151
G1 X73.153 Y72.557 E14.33209
G1 X72.111 Y73.424 E14.38396
G1 X71.016 Y73.906 E14.42975
G1 X70.141 Y74.016 E14.4635
G1 X49.981 Y74.025 E15.23502
G1 X48.977 Y73.775 E15.27462
G1 X47.811 Y73.153 E15.32519
G1 X46.944 Y72.111 E15.37707
G1 X46.462 Y71.016 E15.42285
G1 X46.352 Y70.141 E15.4566
G1 X46.344 Y49.982 E16.22809
G1 X46.594 Y48.978 E16.26768
G1 X46.89 Y48.424 E16.29172
G0 F1620 X47.216 Y47.812
G0 F4320 X47.493 Y48.037
G1 F1800 X48.445 Y47.245 E16.33911
G1 X49.447 Y46.804 E16.38101
G1 X50.228 Y46.703 E16.41115
G1 X70 Y46.693 E17.16782
G1 X71.135 Y46.86 E17.21172
G1 X72.328 Y47.487 E17.2633
G1 X73.123 Y48.442 E17.31086
G1 X73.565 Y49.446 E17.35284
G1 X73.666 Y50.227 E17.38298
G1 X73.675 Y70.343 E18.15281
G1 X73.446 Y71.264 E18.18913
G1 X72.876 Y72.332 E18.23546
G1 X71.924 Y73.124 E18.28286
G1 X70.922 Y73.565 E18.32475
G1 X70.141 Y73.666 E18.35489
G1 X50.025 Y73.675 E19.12473
G1 X49.104 Y73.446 E19.16105
G1 X48.036 Y72.876 E19.20738
G1 X47.244 Y71.924 E19.25477
G1 X46.803 Y70.922 E19.29666
G1 X46.702 Y70.141 E19.3268
G1 X46.694 Y50.026 E20.0966
G1 X46.923 Y49.105 E20.13292
G1 X47.167 Y48.649 E20.15271
G0 F1620 X47.493 Y48.037
G0 F4320 X47.77 Y48.262
G1 F1800 X48.632 Y47.545 E20.19562
G1 X49.541 Y47.145 E20.23363
G1 X50.228 Y47.053 E20.26016
G1 X70 Y47.043 E21.01683
G1 X71.024 Y47.197 E21.05646
G1 X72.104 Y47.765 E21.10316
G1 X72.823 Y48.629 E21.14617
G1 X73.224 Y49.54 E21.18427
G1 X73.316 Y50.227 E21.21079
G1 X73.325 Y70.298 E21.97891
G1 X73.116 Y71.138 E22.01204
G1 X72.599 Y72.107 E22.05407
G1 X71.737 Y72.824 E22.09698
G1 X70.828 Y73.224 E22.13498
G1 X70.141 Y73.316 E22.16151
G1 X50.07 Y73.325 E22.92963
G1 X49.23 Y73.116 E22.96275
G1 X48.261 Y72.599 E23.00478
G1 X47.544 Y71.737 E23.04769
G1 X47.144 Y70.828 E23.0857
G1 X47.052 Y70.141 E23.11223
G1 X47.044 Y50.071 E23.8803
G1 X47.253 Y49.231 E23.91343
G1 X47.444 Y48.874 E23.92893
G0 F1620 X47.77 Y48.262
G0 F4320 X48.047 Y48.487
G1 F1800 X48.819 Y47.845 E23.96735
G1 X49.635 Y47.486 E24.00147
G1 X50.275 Y47.4 E24.02618
G1 X70 Y47.393 E24.78106
G1 X70.913 Y47.534 E24.81641
G1 X71.88 Y48.043 E24.85823
G1 X72.523 Y48.816 E24.89671
G1 X72.883 Y49.634 E24.93091
G1 X72.969 Y50.274 E24.95563
G1 X72.975 Y70.253 E25.72022
G1 X72.786 Y71.012 E25.75015
G1 X72.322 Y71.882 E25.78789
G1 X71.55 Y72.524 E25.82631
G1 X70.734 Y72.883 E25.86043
G1 X70.094 Y72.969 E25.88514
G1 X50.115 Y72.975 E26.64974
G1 X49.356 Y72.786 E26.67967
G1 X48.486 Y72.322 E26.71741
G1 X47.844 Y71.55 E26.75583
G1 X47.485 Y70.734 E26.78995
G1 X47.399 Y70.094 E26.81466
G1 X47.394 Y50.116 E27.57922
G1 X47.583 Y49.357 E27.60915
G1 X47.721 Y49.099 E27.62035
G0 F1620 X48.047 Y48.487
G0 F4320 X48.324 Y48.712
G1 F1800 X49.006 Y48.145 E27.65429
G1 X49.729 Y47.827 E27.68452
G1 X50.322 Y47.747 E27.70742
G1 X70 Y47.743 E28.4605
G1 X70.802 Y47.871 E28.49158
G1 X71.656 Y48.321 E28.52852
G1 X72.223 Y49.003 E28.56246
G1 X72.542 Y49.728 E28.59277
G1 X72.622 Y50.321 E28.61567
G1 X72.625 Y70.208 E29.37675
G1 X72.456 Y70.886 E29.40349
G1 X72.045 Y71.657 E29.43693
G1 X71.363 Y72.224 E29.47087
G1 X70.64 Y72.542 E29.50109
G1 X70.047 Y72.622 E29.52399
G1 X50.16 Y72.625 E30.28507
G1 X49.482 Y72.456 E30.31181
G1 X48.711 Y72.045 E30.34525
G1 X48.144 Y71.363 E30.37919
G1 X47.826 Y70.64 E30.40942
G1 X47.746 Y70.047 E30.43232
G1 X47.744 Y50.161 E31.19335
G1 X47.913 Y49.483 E31.22009
G1 X47.998 Y49.324 E31.22699
G0 F1620 X48.324 Y48.712
G0 F4320 X48.601 Y48.937
G1 F1800 X49.193 Y48.445 E31.25645
G1 X49.823 Y48.168 E31.28279
G1 X50.369 Y48.094 E31.30387
G1 X70 Y48.093 E32.05515
G1 X70.688 Y48.207 E32.08184
G1 X71.432 Y48.599 E32.11402
G1 X71.923 Y49.19 E32.14343
G1 X72.201 Y49.822 E32.16985
G1 X72.275 Y50.368 E32.19094
G1 X72.275 Y70.164 E32.94853
G1 X72.127 Y70.759 E32.97199
G1 X71.768 Y71.432 E33.00119
G1 X71.176 Y71.924 E33.03064
G1 X70.546 Y72.201 E33.05698
G1 X70 Y72.275 E33.07807
G1 X50.204 Y72.275 E33.83566
G1 X49.609 Y72.127 E33.85912
G1 X48.936 Y71.768 E33.88832
G1 X48.444 Y71.176 E33.91777
G1 X48.167 Y70.546 E33.94411
G1 X48.093 Y70 E33.9652
G1 X48.094 Y50.205 E34.72275
G1 X48.242 Y49.61 E34.74622
G1 X48.275 Y49.549 E34.74887
G0 F1620 X48.601 Y48.937
G0 F4320 X48.879 Y49.16
G1 F1800 X49.378 Y48.746 E34.77368
G1 X49.92 Y48.508 E34.79634
G1 X50.369 Y48.444 E34.81369
G1 X70 Y48.443 E35.56497
G1 X70.575 Y48.543 E35.58731
G1 X71.208 Y48.877 E35.6147
G1 X71.623 Y49.377 E35.63956
G1 X71.861 Y49.919 E35.66222
G1 X71.925 Y50.368 E35.67958
G1 X71.925 Y70.12 E36.43548
G1 X71.798 Y70.632 E36.45567
G1 X71.49 Y71.209 E36.4807
G1 X70.991 Y71.623 E36.50552
G1 X70.449 Y71.861 E36.52817
G1 X70 Y71.925 E36.54553
G1 X50.248 Y71.925 E37.30143
G1 X49.736 Y71.798 E37.32162
G1 X49.159 Y71.49 E37.34665
G1 X48.745 Y70.991 E37.37147
G1 X48.507 Y70.449 E37.39412
G1 X48.443 Y70 E37.41148
G1 X48.444 Y50.249 E38.16735
G1 X48.562 Y49.775 E38.18604
G0 F1620 X48.571 Y49.737
G0 X48.879 Y49.16
G0 F4320 X49.156 Y49.385
G1 F1800 X49.518 Y49.067 E38.20448
G1 X50.018 Y48.848 E38.22537
G1 X50.369 Y48.794 E38.23896
G1 X70 Y48.793 E38.99024
G1 X70.459 Y48.878 E39.0081
G1 X70.984 Y49.155 E39.03082
G1 X71.302 Y49.517 E39.04926
G1 X71.521 Y50.017 E39.07015
G1 X71.575 Y50.368 E39.08374
G1 X71.575 Y70.08 E39.83812
G1 X71.489 Y70.467 E39.85329
G1 X71.213 Y70.984 E39.87572
G1 X70.851 Y71.302 E39.89416
G1 X70.351 Y71.521 E39.91505
G1 X70 Y71.575 E39.92864
G1 X50.288 Y71.575 E40.68302
G1 X49.901 Y71.489 E40.69819
G1 X49.384 Y71.213 E40.72062
G1 X49.066 Y70.851 E40.73906
G1 X48.847 Y70.351 E40.75995
G1 X48.793 Y70 E40.77354
G1 X48.794 Y50.289 E41.52788
G1 X48.857 Y50.007 E41.53893
G0 F1620 X48.88 Y49.902
G0 X49.156 Y49.385
G0 F4320 X49.396 Y49.639
G1 F1800 X49.666 Y49.384 E41.55315
G1 X50.076 Y49.193 E41.57046
G1 X50.369 Y49.144 E41.58183
G1 X70 Y49.143 E42.3331
G1 X70.391 Y49.221 E42.34836
G1 X70.73 Y49.395 E42.36294
G1 X70.985 Y49.665 E42.37716
G1 X71.176 Y50.075 E42.39447
G1 X71.225 Y50.368 E42.40584
G1 X71.225 Y70.04 E43.15868
G1 X71.147 Y70.391 E43.17244
G1 X70.973 Y70.73 E43.18702
G1 X70.703 Y70.985 E43.20124
G1 X70.293 Y71.176 E43.21855
G1 X70 Y71.225 E43.22992
G1 X50.328 Y71.225 E43.98276
G1 X49.977 Y71.147 E43.99652
G1 X49.638 Y70.973 E44.01111
G1 X49.383 Y70.703 E44.02532
G1 X49.192 Y70.293 E44.04263
G1 X49.143 Y70 E44.054
G1 X49.144 Y50.329 E44.8068
G1 X49.154 Y50.284 E44.80857
G0 F1620 X49.222 Y49.978
G0 X49.396 Y49.639
G0 F4320 X49.701 Y49.811
G1 F1800 X49.823 Y49.697 E44.81496
G1 X50.141 Y49.537 E44.82858
G1 X50.369 Y49.494 E44.83746
G1 X70 Y49.493 E45.58874
G1 X70.315 Y49.563 E45.60109
G1 X70.558 Y49.7 E45.61176
G1 X70.672 Y49.822 E45.61815
G1 X70.832 Y50.14 E45.63178
G1 X70.875 Y50.368 E45.64066
G1 X70.875 Y70 E46.39197
G1 X70.805 Y70.315 E46.40432
G1 X70.668 Y70.558 E46.415
G1 X70.546 Y70.672 E46.42139
G1 X70.228 Y70.832 E46.43501
G1 X70 Y70.875 E46.44389
G1 X50.368 Y70.875 E47.19521
G1 X50.053 Y70.805 E47.20755
G1 X49.81 Y70.668 E47.21823
G1 X49.696 Y70.546 E47.22462
G1 X49.536 Y70.228 E47.23824
G1 X49.493 Y70 E47.24712
G1 X49.494 Y50.463 E47.9948
G0 F1620 X49.494 Y50.369
G0 X49.564 Y50.054
G0 X49.701 Y49.811
G0 F4320 X50.233 Y50.259
G1 F1800 X50.369 Y50.194 E48.00057
G1 X70 Y50.193 E48.75185
G1 X70.11 Y50.232 E48.75632
G1 X70.175 Y50.368 E48.76208
G1 X70.175 Y70 E49.5134
G1 X70.136 Y70.11 E49.51787
G1 X70 Y70.175 E49.52363
G1 X50.368 Y70.175 E50.27495
G1 X50.258 Y70.136 E50.27942
G1 X50.193 Y70 E50.28518
G1 X50.194 Y50.947 E51.01434
G0 F1620 X50.194 Y50.369
G0 X50.233 Y50.259
G0 F4320 X49.994 Y50.003
G1 F1800 X50.218 Y49.878 E51.02416
G1 X50.369 Y49.844 E51.03008
G1 X70 Y49.843 E51.78136
G1 X70.227 Y49.902 E51.79034
G1 X70.366 Y49.993 E51.79669
G1 X70.491 Y50.217 E51.80651
G1 X70.525 Y50.368 E51.81243
G1 X70.525 Y70 E52.56375
G1 X70.466 Y70.227 E52.57273
G1 X70.375 Y70.366 E52.57908
G1 X70.151 Y70.491 E52.5889
G1 X70 Y70.525 E52.59482
G1 X50.368 Y70.525 E53.34614
G1 X50.141 Y70.466 E53.35512
G1 X50.002 Y70.375 E53.36147
G1 X49.877 Y70.151 E53.37129
G1 X49.843 Y70 E53.37721
G1 X49.844 Y50.663 E54.11724
G0 F1620 X49.844 Y50.369
G0 X49.903 Y50.142
G0 X49.994 Y50.003
G1 F2400 E53.11724
;MESH:four_square_cons.stl
G0 F4320 X51.419 Y51.419
G0 X68.978 Y51.39
G0 X69.125 Y69.125
;TYPE:WALL-INNER
G1 F2400 E54.11724
G1 F1800 X69.125 Y51.243 E54.80158
G1 X51.244 Y51.244 E55.48589
G1 X51.243 Y69.125 E56.17019
G1 X68.431 Y69.125 E56.82798
G0 F1620 X69.125 Y69.125
G0 F4320 X69.475 Y69.475
G1 F1800 X69.475 Y50.893 E57.53911
G1 X50.894 Y50.894 E58.2502
G1 X50.893 Y69.475 E58.9613
G1 X68.781 Y69.475 E59.64587
G0 F1620 X69.475 Y69.475
G0 F4320 X69.8 Y69.8
;TYPE:WALL-OUTER
G1 F1800 X69.8 Y50.568 E60.38188
G1 X50.569 Y50.569 E61.11785
G1 X50.568 Y69.8 E61.85381
G1 X69.106 Y69.8 E62.56326
G0 F1620 X69.8 Y69.8
G0 F4320 X69.8 Y69.6
G0 X69.155 Y69.155
G0 X68.793 Y68.793
;TYPE:SKIN
G1 F1200 X51.575 Y68.793 E63.22219
G1 X51.576 Y51.576 E63.88109
G1 X68.793 Y51.575 E64.53998
G1 X68.793 Y68.099 E65.17235
G0 F1080 X68.793 Y68.793
G0 F4320 X69.05 Y68.793
G0 X69.05 Y52.283
G0 X68.617 Y52.283
G1 F1200 X68.084 Y51.75 E65.2012
G0 F4320 X67.589 Y51.75
G1 F1200 X68.617 Y52.778 E65.25684
G0 F4320 X68.617 Y53.273
G1 F1200 X67.094 Y51.75 E65.33927
G0 F4320 X66.599 Y51.75
G1 F1200 X68.617 Y53.768 E65.44848
G0 F4320 X68.617 Y54.263
G1 F1200 X66.104 Y51.75 E65.58449
G0 F4320 X65.609 Y51.75
G1 F1200 X68.617 Y54.758 E65.74729
G0 F4320 X68.617 Y55.253
G1 F1200 X65.114 Y51.75 E65.93688
G0 F4320 X64.619 Y51.75
G1 F1200 X68.617 Y55.748 E66.15326
G0 F4320 X68.617 Y56.243
G1 F1200 X64.124 Y51.75 E66.39643
G0 F4320 X63.629 Y51.75
G1 F1200 X68.617 Y56.738 E66.66639
G0 F4320 X68.617 Y57.233
G1 F1200 X63.134 Y51.75 E66.96314
G0 F4320 X62.639 Y51.75
G1 F1200 X68.617 Y57.728 E67.28668
G0 F4320 X68.617 Y58.223
G1 F1200 X62.144 Y51.75 E67.63701
G0 F4320 X61.649 Y51.75
G1 F1200 X68.617 Y58.718 E68.01413
G0 F4320 X68.617 Y59.213
G1 F1200 X61.154 Y51.75 E68.41804
G0 F4320 X60.659 Y51.75
G1 F1200 X68.617 Y59.708 E68.84875
G0 F4320 X68.617 Y60.203
G1 F1200 X60.164 Y51.75 E69.30624
G0 F4320 X59.669 Y51.75
G1 F1200 X68.617 Y60.698 E69.79052
G0 F4320 X68.617 Y61.193
G1 F1200 X59.174 Y51.75 E70.30159
G0 F4320 X58.679 Y51.75
G1 F1200 X68.617 Y61.687 E70.83943
G0 F4320 X68.617 Y62.182
G1 F1200 X58.184 Y51.75 E71.40406
G0 F4320 X57.69 Y51.75
G1 F1200 X68.617 Y62.677 E71.99545
G0 F4320 X68.617 Y63.172
G1 F1200 X57.195 Y51.75 E72.61363
G0 F4320 X56.7 Y51.75
G1 F1200 X68.617 Y63.667 E73.2586
G0 F4320 X68.617 Y64.162
G1 F1200 X56.205 Y51.75 E73.93036
G0 F4320 X55.71 Y51.75
G1 F1200 X68.617 Y64.657 E74.62891
G0 F4320 X68.617 Y65.152
G1 F1200 X55.215 Y51.75 E75.35425
G0 F4320 X54.72 Y51.75
G1 F1200 X68.617 Y65.647 E76.10638
G0 F4320 X68.617 Y66.142
G1 F1200 X54.225 Y51.75 E76.8853
G0 F4320 X53.73 Y51.75
G1 F1200 X68.617 Y66.637 E77.69101
G0 F4320 X68.617 Y67.132
G1 F1200 X53.235 Y51.75 E78.52352
G0 F4320 X52.74 Y51.75
G1 F1200 X68.617 Y67.627 E79.38281
G0 F4320 X68.617 Y68.122
G1 F1200 X52.245 Y51.75 E80.26889
G0 F4320 X51.75 Y51.75
G1 F1200 X68.617 Y68.617 E81.18177
G0 F4320 X68.122 Y68.617
G1 F1200 X51.75 Y52.245 E82.06785
G0 F4320 X51.75 Y52.74
G1 F1200 X67.627 Y68.617 E82.92714
G0 F4320 X67.132 Y68.617
G1 F1200 X51.75 Y53.235 E83.75965
G0 F4320 X51.75 Y53.73
G1 F1200 X66.637 Y68.617 E84.56536
G0 F4320 X66.142 Y68.617
G1 F1200 X51.75 Y54.225 E85.34428
G0 F4320 X51.75 Y54.72
G1 F1200 X65.647 Y68.617 E86.09641
G0 F4320 X65.152 Y68.617
G1 F1200 X51.75 Y55.215 E86.82175
G0 F4320 X51.75 Y55.71
G1 F1200 X64.657 Y68.617 E87.5203
G0 F4320 X64.162 Y68.617
G1 F1200 X51.75 Y56.205 E88.19206
G0 F4320 X51.75 Y56.7
G1 F1200 X63.667 Y68.617 E88.83704
G0 F4320 X63.172 Y68.617
G1 F1200 X51.75 Y57.195 E89.45522
G0 F4320 X51.75 Y57.69
G1 F1200 X62.677 Y68.617 E90.0466
G0 F4320 X62.182 Y68.617
G1 F1200 X51.75 Y58.184 E90.61123
G0 F4320 X51.75 Y58.679
G1 F1200 X61.687 Y68.617 E91.14907
G0 F4320 X61.193 Y68.617
G1 F1200 X51.75 Y59.174 E91.66014
G0 F4320 X51.75 Y59.669
G1 F1200 X60.698 Y68.617 E92.14442
G0 F4320 X60.203 Y68.617
G1 F1200 X51.75 Y60.164 E92.60191
G0 F4320 X51.75 Y60.659
G1 F1200 X59.708 Y68.617 E93.03262
G0 F4320 X59.213 Y68.617
G1 F1200 X51.75 Y61.154 E93.43653
G0 F4320 X51.75 Y61.649
G1 F1200 X58.718 Y68.617 E93.81365
G0 F4320 X58.223 Y68.617
G1 F1200 X51.75 Y62.144 E94.16398
G0 F4320 X51.75 Y62.639
G1 F1200 X57.728 Y68.617 E94.48752
G0 F4320 X57.233 Y68.617
G1 F1200 X51.75 Y63.134 E94.78427
G0 F4320 X51.75 Y63.629
G1 F1200 X56.738 Y68.617 E95.05423
G0 F4320 X56.243 Y68.617
G1 F1200 X51.75 Y64.124 E95.2974
G0 F4320 X51.75 Y64.619
G1 F1200 X55.748 Y68.617 E95.51378
G0 F4320 X55.253 Y68.617
M104 S240
G1 F1200 X51.75 Y65.114 E95.70337
G0 F4320 X51.75 Y65.609
G1 F1200 X54.758 Y68.617 E95.86617
G0 F4320 X54.263 Y68.617
G1 F1200 X51.75 Y66.104 E96.00218
G0 F4320 X51.75 Y66.599
G1 F1200 X53.768 Y68.617 E96.11139
G0 F4320 X53.273 Y68.617
